!!!COM: Scriabin, Alexander
!!!OTL@@FR: Mouvement no 1
!!!OTL@@EN: Movement No. 1
!!!OPR@@FR: Sonate no 1
!!!OPR@@EN: Sonata No. 1
!!!OPS: 6
!!!ONM: 1
!!!ODT: 1893
!!!AGN: Sonata movement
**kern	**kern	**dynam
*staff2	*staff1	*staff1/2
*Ipiano	*Ipiano	*
*clefF4	*clefG2	*
*k[b-e-a-d-]	*k[b-e-a-d-]	*
*f:	*f:	*
*M9/8	*M9/8	*
8FFFL 8FF	8r	.
[8GGGJ [8GG	8r	.
=1!|:	=1!|:	=1!|:
4GGG] 4GG]	4.F 4.c 4.f	.
8AAA- 8AA-	.	.
8BBBnL 8BBn	4A- 4f 4a-	.
8CC 8C	.	.
8GGJ 8G	[8c [8f [8cc	.
4AA- 4A-	8cL] 8f] 8cc]	.
.	8en 8een	.
8A- 8d- 8a-	8fJ 8bn 8ff	.
=2	=2	=2
4.FFF 4.FF	8r	.
.	16GLL	.
.	16c	.
.	16f	.
.	16gJJ	.
4.C 4.G [4.c	16ccLL	.
.	16ff	.
.	16gg	.
.	16ccc	.
.	16fff	.
.	16gggJJ	.
8A- 8c] 8f 8a-	8aa- 8fff 8aaa-	.
8FFFL 8FF	8r	.
[8GGGJ [8GG	8r	.
=3	=3	=3
4GGG] 4GG]	4.F 4.c 4.f	.
8AAA- 8AA-	.	.
8BBBnL 8BBn	4A- 4f 4a-	.
8CC 8C	.	.
8GGJ 8G	[8c [8f [8cc	.
4AA- 4A-	8cL] 8f] 8cc]	.
.	8en 8een	.
8A- 8d- 8a-	8fJ 8bn 8ff	.
=4	=4	=4
*	*^	*
4.FFF 4.FF	4rc	8raa	.
.	.	16GLL	.
.	.	16d-	.
.	8rc	16f	.
.	.	16gJJ	.
4.D- 4.G [4.d-	4rc	16dd-LL	.
.	.	16ff	.
.	.	16gg	.
.	.	16ddd-	.
.	8rc	16fff	.
.	.	16gggJJ	.
8A- 8d-] 8f 8a-	4rc	8aa- 8fff 8aaa-	.
8r	.	8AnL 8an	.
8r	[8f	[8B-XJ [8b-X	.
=5	=5	=5	=5
4.GGG-X 4.GG-X	4.f]	4B-] 4b-]	.
.	.	8c 8cc	.
4.F 4.B- 4.f	4.b-	8d-L 8dd-	.
.	.	8en 8een	.
.	.	8fJ 8ff	.
8r	4.ff	4cc 4ccc	.
8GGG-L 8GG-	.	.	.
[8GGGnJ [8GGn	.	8b- 8bb-	.
=6	=6	=6	=6
4GGG] 4GG] 4F 4B- 4f	[2.ff	4.b- 4.bb-	.
8CC 8C	.	.	.
8DD-L 8D-	.	[4.an [4.aan	.
8GG 8G	.	.	.
8CJ 8c	.	.	.
4D- 4d-	4.ff]	8.a] 8.aa]	.
.	.	8.b- 8.bb-	.
8r	.	.	.
=7	=7	=7	=7
[4.DDD- [4.DD-	4.ff	8bnL 8bbn	.
.	.	8b-X 8bb-X	.
.	.	8bnJ 8bbn	.
8DDD-L] 8DD-]	4.bb	4.gg 4.ggg	.
8GG 8G	.	.	.
8FJ 8f	.	.	.
4.Bn 4.bn	4.gg	4ff 4fff	.
.	.	8een 8eeen	.
=8	=8	=8	=8
*^	*	*	*
4rEE	8.CCC 8.CC	4.gg	8eenL 8eeen	.
.	.	.	8bn 8bbn	.
.	8.GG 8.G	.	.	.
8rEE	.	.	8ccJ 8ccc	.
*clefG2	*	*	*	*
4rc	4en 4g 4cc 4gg	4rc	8bbL 8ggg 8bbbn	.
.	.	.	8cccJ 8cccc	.
8rc	8raa	8rc	8raa	.
4rc	4raa	8rc	4raa	.
.	.	8gL	.	.
*clefF4	*	*	*	*
8A-	[8c [8e-X	[8a-J	8raa	.
=9	=9	=9	=9	=9
[2.G-X	4.c] 4.e-]	4a-]	4raa	.
.	.	8bn	8raa	.
.	[4.c [4.e- 4.a-	4.cc	8raa	.
.	.	.	8ddnL	.
.	.	.	[8ee-J	.
4G-]	4c] 4e-]	8gnL 8ggn	4ee-]	.
.	.	8a- 8aa-	.	.
8F	8c 8f	[8anJ [8ff [8aan	8raa	.
=10	=10	=10	=10	=10
4rEE	16FFLL	8a] 8ff] 8aa]	8%9ryy	.
.	16C	.	.	.
.	16F	4an 4ff 4aan	.	.
.	16C	.	.	.
8rEE	16c	.	.	.
.	16CJJ	.	.	.
4rEE	16FLL	4a 4ff	.	.
.	16c	.	.	.
.	16F	.	.	.
.	16c	.	.	.
8rEE	16f	8a 8cc	.	.
.	16cJJ	.	.	.
*clefG2	*	*	*	*
4rc	8cc	8r	.	.
.	8raa	8aL	.	.
*clefF4	*	*	*	*
8B-	[8dn [8f	[8b-XJ	.	.
=11	=11	=11	=11	=11
[2.A-X	4.d] 4.f]	4b-]	4raa	.
.	.	8cc#X	8raa	.
.	[4.dn [4.f 4.b-	4.ddn	8raa	.
.	.	.	8eenL	.
.	.	.	[8ffJ	.
4A-]	4d] 4f]	8anL 8aan	4ff]	.
.	.	8b- 8bb-	.	.
8G	8d 8g	[8bnJ [8gg [8bbn	8raa	.
*v	*v	*	*	*
=12	=12	=12	=12
16GGLL	8b] 8gg] 8bb]	8%9ryy	.
16Dn	.	.	.
16G	4bn 4gg 4bbn	.	.
16D	.	.	.
16dn	.	.	.
16DJJ	.	.	.
16GLL	4b 4gg	.	.
16d	.	.	.
16G	.	.	.
16d	.	.	.
16g	8b 8ddn	.	.
16dJJ	.	.	.
*clefG2	*	*	*
8ddn	8r	.	.
8r	8aa#XL	.	.
8r	[8bJ [8gg [8bb	.	.
*clefF4	*	*	*
=13	=13	=13	=13
16FF#XLL	8b] 8gg] 8bb]	8%9ryy	.
16Dn	.	.	.
16G	4bn 4gg 4bbn	.	.
16D	.	.	.
16dn	.	.	.
16DJJ	.	.	.
16GLL	4b 4gg	.	.
16d	.	.	.
16G	.	.	.
16d	.	.	.
16g	8b 8ddn	.	.
16dJJ	.	.	.
*clefG2	*	*	*
8ddn	8r	.	.
8r	8ccc#XL	.	.
8r	[8ddJ [8gg [8bb [8dddn	.	.
*clefF4	*	*	*
=14	=14	=14	=14
16FFnLL	8dd] 8gg] 8bb] 8ddd]	8%9ryy	.
16Dn	.	.	.
16G	4ddn 4gg 4bbn 4dddn	.	.
16D	.	.	.
16dn	.	.	.
16DJJ	.	.	.
16GLL	4bn 4dd 4gg 4bb	.	.
16d	.	.	.
16g	.	.	.
16d	.	.	.
16G	8g 8b 8dd 8gg	.	.
16DJJ	.	.	.
16FFLL	8r	.	.
16C-X	.	.	.
16A-	4dd 4aa- 4ccc-X 4dddX	.	.
16C-	.	.	.
16d	.	.	.
16A-JJ	.	.	.
=15	=15	=15	=15
16FF-XLL	4cc-X 4ddn 4aa- 4ccc-X	4raa	.
16C-X	.	.	.
16A-	.	.	.
16C-	.	.	.
16dn	8a- 8dd 8aa-	8raa	.
16A-JJ	.	.	.
16f-XLL	8rc	4raa	.
16c-X	.	.	.
16F-X	8d-XL 8a- 8dd-X	.	.
16c-	.	.	.
16F-	8dnJ 8a- 8ddn	8raa	.
16C-JJ	.	.	.
16FF-LL	8dL 8a- 8dd	8raa	.
16BB-X	.	.	.
16A-	8b-X 8bb-X	4dd	.
16BB-	.	.	.
16A-	8a-J 8aa-	.	.
16dJJ	.	.	.
=16	=16	=16	=16
16EE-LL	8gL 8gg	4ee-	.
16BB-	.	.	.
16G	8b- 8bb-	.	.
16C-X	.	.	.
16E-	8e-J 8ee-	8b-	.
16B-JJ	.	.	.
16F-XLL	4e- 4ee-	4.a-	.
16A-	.	.	.
16e-	.	.	.
16A-	.	.	.
16c-X	8dn 8ddn	.	.
16f-XJJ	.	.	.
16a-LL	4rc	4raa	.
16b-	.	.	.
16cc-X	.	.	.
16f-	.	.	.
16c-	8rc	8raa	.
16A-JJ	.	.	.
=17	=17	=17	=17
16f-XLL	4rc	8raa	.
16A-	.	.	.
16B-	.	8a-L 8ddn	.
16d-X	.	.	.
16c-X	8rc	8a-J 8dd	.
16E-JJ	.	.	.
8a-	4rc	16raa	.
.	.	16a-LL	.
8r	.	16dd	.
.	.	16a-	.
8r	8rc	16aa-	.
.	.	[16ddJJ	.
*clefG2	*	*	*
16ff-XLL	8rc	8ddL] 8aa- 8dddn	.
16cc-X	.	.	.
16f-X	4ddd	8bb- 8bbb-	.
16cc-	.	.	.
16f-	.	8aa-J 8aaa-	.
16A-JJ	.	.	.
=18	=18	=18	=18
16E-LL	4eee-	8ggL 8ggg	.
16B-	.	.	.
16g	.	8bb- 8bbb-	.
16c-X	.	.	.
16e-	8bb-	8ee-J 8eee-	.
16b-JJ	.	.	.
16f-XLL	4.aa-	4ee- 4eee-	.
16a-	.	.	.
16ee-	.	.	.
16a-	.	.	.
16cc-X	.	8ddn 8dddn	.
16ff-XJJ	.	.	.
16aa-LL	4rc	4raa	.
16bb-	.	.	.
16ccc-X	.	.	.
16ff-	.	.	.
16cc-	8rc	8raa	.
16a-JJ	.	.	.
=19	=19	=19	=19
16ff-XLL	4rb	8aa-L 8dddn	.
16a-	.	.	.
16b-	.	16r	.
16dd-X	.	16aa-k 16ddd	.
16cc-X	8rc	8aa-J 8ddd	.
16e-JJ	.	.	.
8aa-	4rc	16raa	.
.	.	16aa-LL	.
8r	.	16ddd	.
.	.	16aa-	.
8r	8rc	16aaa-	.
.	.	[16dddJJ	.
16fff-XLL	8rc	8dddL] 8aaa- 8ddddn	.
16aa-	.	.	.
16cc-	4dddd	8bbb- 8bbbb-	.
16aa-	.	.	.
16cc-	.	8aaa-J 8aaaa-	.
[16e-JJ	.	.	.
=20	=20	=20	=20
4.e-] 4.b- 4.gg	4rc	16gggLL 16eeee- 16gggg	.
.	.	16bbb-	.
.	.	16eeee-	.
.	.	16eee-	.
.	8rc	16eeee-	.
.	.	16bbb-JJ	.
4r	4rc	16eee-LL	.
.	.	16bbb-	.
.	.	16eee-	.
.	.	16bb-	.
8r	8rc	16eee-	.
.	.	16ee-JJ	.
16ccc-XLL	8aa-	8dddnL	.
16ff-X	.	.	.
16cc-X	4ddd	8bb- 8bbb-	.
16ff-	.	.	.
16cc-	.	8aa-J 8aaa-	.
[16e-JJ	.	.	.
=21	=21	=21	=21
4.e-] 4.b- 4.ee-	4rc	16gLL 16ee- 16gg	.
.	.	16b-	.
.	.	16ee-	.
.	.	16e-	.
.	8rc	16ee-	.
.	.	16b-JJ	.
4r	4rc	16ee-LL	.
.	.	16bb-	.
.	.	16ee-	.
.	.	16b-	.
8r	8rc	16ee-	.
.	.	16e-JJ	.
*clefF4	*	*	*
4.B- 4.f-X	8a-	8ddnL	.
.	4dd	8b- 8bb-	.
.	.	8a-J 8aa-	.
*	*v	*v	*
=22	=22	=22
8E-L	4.g 4.ee- [4.gg	.
8B-	.	.
8gJ	.	.
4.e-	8ggL]	.
.	8ff#X	.
.	8ggJ	.
*clefG2	*	*
4d-X 4e- 4g 4ee-	4bb-	.
*clefF4	*	*
[8c [8e- [8a-	8aa-	.
=23	=23	=23
4.c] 4.e-] 4.a-]	[4.ee-	.
4.c-X 4.e- 4.an	8ee-L]	.
.	8ddn	.
.	8ee-J	.
4B- 4e- 4b-	4gg	.
[8A-X [8e-	8ffn	.
=24	=24	=24
4.A-] 4.e-]	[4.cc-X	.
4.A-- 4.c-X 4.f	8cc-L]	.
.	8b-	.
.	8cc-J	.
4G-X 4c- 4g-X	8ee-L	.
.	8gn	.
8F 8c- 8e-	8a-XJ	.
=25	=25	=25
*^	*^	*
16%3A-L	2.F-X 2.dn	4rc	8cc-XL	.
.	.	.	8b-	.
16%3B-J	.	.	.	.
.	.	8rc	8a-J	.
4.B-	.	4rc	8gL	.
.	.	.	8a-	.
.	.	8rc	8dnJ 8ddn	.
4.B-	[4F- [4d	4dd	8b-L 8bb-	.
.	.	.	8.a- 8.aa-	.
.	16F-LL] 16d]	8rc	.	.
.	[16E-JJ 16e-	.	16gJk 16ee- 16gg	.
*v	*v	*	*	*
*	*v	*v	*
=26	=26	=26
8E-L]	4.g 4.ee- [4.gg	.
8B-	.	.
8gJ	.	.
4.e-	8ggL]	.
.	8aa-	.
.	8aanJ	.
*clefG2	*	*
4e- 4fn 4an 4ffn	4cccn	.
*clefF4	*	*
[8d-X [8f [8b-	8bb-	.
=27	=27	=27
4.d-] 4.f] 4.b-]	[4.ff	.
4.d- 4.f 4.bn	8ffL]	.
.	8een	.
.	8ffJ	.
4c 4f 4cc	4aa-X	.
[8B-X [8f	8gg	.
=28	=28	=28
4.B-] 4.f]	[4.dd-	.
4.B-- 4.d- 4.g	8dd-L]	.
.	8cc	.
.	8dd-J	.
4A- 4d- 4a-	8ffL	.
.	8an	.
8G 8d- 8f	8b-J	.
=29	=29	=29
*	*^	*
4.G-X 4.d- 4.f-X	4rc	8dd-L	.
.	.	8cc	.
.	8rc	8b-J	.
4.Gn 4.d- 4.e-	4rc	8anL	.
.	.	8b-	.
.	8rc	8e-J 8ee-	.
[4E- [4d- [4g	[4.ee-	8ccL 8ccc	.
.	.	8.b- 8.bb-	.
16E-LL] 16d-] 16g]	.	.	.
16E-JJ 16c 16a-	.	16a-XJk 16aa-	.
=30	=30	=30	=30
8AA-L	4.ee-]	4.a- [4.aa-	.
8E-	.	.	.
8cJ	.	.	.
4.c	4rc	32%3aa-L]	.
.	.	32%3ee-	.
.	.	32%3ddn	.
.	8rc	.	.
.	.	32%3ee-J	.
*clefG2	*	*	*
8r	4rc	32%3eenL	.
.	.	32%3ff	.
8BnL 8a- 8ddn	.	.	.
.	.	32%3bb-	.
8cJ 8a- 8ee-	8rc	.	.
.	.	32%3aa-J	.
*	*v	*v	*
=31	=31	=31
*^	*	*
8rc	[4e-	[4.ee-X	.
8cL 8a-	.	.	.
8cJ 8a-	16e-LL]	.	.
.	16e-JJ	.	.
8rc	2.e-	32%3ee-L]	.
.	.	32%3ee-	.
8c-XL 8an	.	.	.
.	.	32%3ddn	.
8c-J 8a	.	.	.
.	.	32%3ee-J	.
8rc	.	32%3ff#XL	.
.	.	32%3aa-	.
8B-XL 8b-	.	.	.
.	.	32%3.gg	.
8A-XJ 8cc-X	.	.	.
.	.	64%3ffnJk	.
*clefF4	*	*	*
=32	=32	=32	=32
8rEE	[4e-	[4.cc-X	.
8A-L	.	.	.
8A-J	16e-LL]	.	.
.	16d-XJJ	.	.
8rEE	2.c-X	32%3cc-L]	.
.	.	32%3cc-	.
8A--L 8f	.	.	.
.	.	32%3b-	.
8A--J 8f	.	.	.
.	.	32%3cc-J	.
8rEE	.	32%3ee-L	.
.	.	32%3a-X	.
8G-XL 8g-X	.	.	.
.	.	32%3gn	.
8FJ 8e-	.	.	.
.	.	32%3a-J	.
=33	=33	=33	=33
*	*	*^	*
8rEE	4.A-X	4rc	32%3cc-XL	.
.	.	.	32%3b-	.
8F-XL 8dn	.	.	.	.
.	.	.	32%3an	.
8F-J 8d	.	8rc	.	.
.	.	.	32%3a-XJ	.
4rEE	4.B-	4rc	32%3gL	.
.	.	.	32%3a-	.
.	.	.	32%3d-X 32%3dd-X	.
8rEE	.	8rc	.	.
.	.	.	32%3dnJ 32%3ddn	.
[4F- [4d	4.B-	4dd	8b-L 8bb-	.
.	.	.	8.a- 8.aa-	.
16F-LL] 16d]	.	8rc	.	.
[16E-JJ 16e-	.	.	16gJk 16ee- 16gg	.
*	*	*v	*v	*
=34	=34	=34	=34
8E-L]	8%9ryy	4.g 4.ee- [4.gg	.
8B-	.	.	.
8gJ	.	.	.
4.e-	.	32%3ggL]	.
.	.	32%3gg	.
.	.	32%3ff#X	.
.	.	32%3ggJ	.
*clefG2	*	*	*
8r	.	32%3aa-L	.
.	.	32%3aan	.
8e-L 8fn 8an 8ffn	.	.	.
.	.	32%3cccn	.
8d-XJ 8f 8b- 8ff	.	.	.
.	.	32%3bb-J	.
=35	=35	=35	=35
8rc	[4f	[4.ffn	.
8d-L 8b-	.	.	.
8d-J 8b-	16fLL]	.	.
.	16fJJ	.	.
8rc	2.f	32%3ffL]	.
.	.	32%3ff	.
8d-L 8bn	.	.	.
.	.	32%3een	.
8d-J 8b	.	.	.
.	.	32%3ffJ	.
8rc	.	32%3ggL	.
.	.	32%3bb-	.
8cL 8cc	.	.	.
.	.	32%3.aa-X	.
8B-XJ 8dd-	.	.	.
.	.	64%3ggJk	.
=36	=36	=36	=36
8rc	[4f	[4.dd-	.
8B-L	.	.	.
8B-J	16fLL]	.	.
.	16e-JJ	.	.
8rc	2.d-	32%3dd-L]	.
.	.	32%3dd-	.
8B--L 8g	.	.	.
.	.	32%3cc	.
8B--J 8g	.	.	.
.	.	32%3dd-J	.
8rc	.	32%3ffL	.
.	.	32%3b-X	.
8A-L 8a-	.	.	.
.	.	32%3an	.
8GJ 8f	.	.	.
.	.	32%3b-J	.
=37	=37	=37	=37
*	*	*^	*
8rc	2.d-	4rc	32%3dd-L	.
.	.	.	32%3cc	.
16rc	.	.	.	.
16GKL 16f	.	.	32%3cc-X	.
8GJ 8f	.	8rc	.	.
.	.	.	32%3b-J	.
4rc	.	4rc	32%3anL	.
.	.	.	32%3b-	.
.	.	.	32%3een	.
8rc	.	8rc	.	.
.	.	.	32%3ffJ	.
4rc	[4d- [4f [4dd-	[4ff	8ccnL 8ccc	.
.	.	.	8.b- 8.bb-	.
8rc	16d-LL] 16f] 16dd-]	16ff]	.	.
.	16GJJ 16c#X 16en	16ee	[16aJk [16aan	.
*v	*v	*	*	*
=38	=38	=38	=38
8c#XL	32%3een	32%3aXL] 32%3aaX]	.
.	16%3.ee	32%3an 32%3aan	.
8en 8cc#X	.	.	.
.	.	32%3g#X 32%3gg#X	.
8F#XJ 8c# 8e	.	.	.
.	.	32%3aJ 32%3aa	.
8c#L	4.aa	32%3eeL 32%3eeen	.
.	.	32%3ff#X 32%3fff#X	.
8e 8cc#	.	.	.
.	.	32%3dd#X 32%3ddd#X	.
8eJ	.	.	.
.	.	32%3eeJ 32%3eee	.
4an 4een	4.rc	4aa 4ccc#X 4aaan	.
8r	.	8raa	.
*	*v	*v	*
*clefF4	*	*
=39	=39	=39
*^	*	*
8rEE	2.d-X	32%3r	.
.	.	32%3a-XL	.
16rEE	.	.	.
16FnKL 16fn	.	32%3g	.
8FJ 8f	.	.	.
.	.	32%3a-J	.
8rEE	.	32%3dd-XL	.
.	.	32%3ee-X	.
16rEE	.	.	.
8.F 8.a-	.	32%3cc	.
.	.	32%3dd-J	.
8rEE	4.d-	32%3r	.
.	.	32%3a-L	.
16rEE	.	.	.
8.F	.	32%3g	.
.	.	32%3a-J	.
=40	=40	=40	=40
*	*^	*	*
4r	8rEE	4.dn	32%3bnL	.
.	.	.	32%3cc#X	.
.	16rEE	.	.	.
.	8.F-X 8.a-X	.	32%3a#X	.
8r	.	.	.	.
.	.	.	32%3bJ	.
32%3r	16%3rEE	32%3rc	32%3dnL	.
[16%3.F-	.	32%3F-L	32%3g	.
.	[16%3B	32%3Bn	32%3a-X	.
.	.	[32%3a-J	32%3ddnJ	.
4.F-]	4.B]	4.a-] 4.ddn	4bb-X	.
.	.	.	8aa-	.
*	*v	*v	*	*
=41	=41	=41	=41
*	*	*^	*
8.E-L	2.c	2.a-	[4.ee-	.
16E-k	.	.	.	.
8E-J	.	.	.	.
4.E-	.	.	8ee-L]	.
.	.	.	8ddn	.
.	.	.	8ee-J	.
4.E-X	4.c-X 4.e--	4.f-X 4.a-	4ff-X	.
.	.	.	8cc-X	.
*v	*v	*	*	*
=42	=42	=42	=42
16EE-XLL	8rc	4raa	.
16D-X	.	.	.
16F-X	4f-X 4b-- 4ff-X	.	.
16D-	.	.	.
16d-	.	8raa	.
16D-JJ	.	.	.
16F-LL	4f- 4b-- 4dd-X	8raa	.
16d-	.	.	.
16F-	.	8ee-L	.
16d-	.	.	.
*clefG2	*	*	*
16f-X	8b--	8ff-J	.
[16d-JJ	.	.	.
4.d-] 4.f- 4.dd- 4.ff-X	4rc	4cc-X 4ccc-X	.
.	8rc	8b-- 8bb--	.
*clefF4	*	*	*
=43	=43	=43	=43
*^	*	*	*
8.E-L	2.d-	2.b--	[4.ff-X	.
16E-k	.	.	.	.
8E-J	.	.	.	.
4.E-	.	.	8ff-L]	.
.	.	.	8ee-	.
.	.	.	8ff-J	.
4.E-	4.An 4.cn	4.fn 4.an	4ffn	.
.	.	.	8ccn	.
*v	*v	*	*	*
=44	=44	=44	=44
16EE-LL	8rc	4raa	.
16BB-	.	.	.
16F	4f 4b-X 4ff	.	.
16BB-	.	.	.
16B-	.	8raa	.
16BB-JJ	.	.	.
16FLL	4f 4b- 4ddn	8raa	.
16B-	.	.	.
16E-X	.	8eenL	.
16B-	.	.	.
16dn	8b-	8ffJ	.
[16E-JJ	.	.	.
4.E-] 4.B- 4.d-X	4.g-X 4.b-	4gg-X	.
.	.	8dd-X	.
=45	=45	=45	=45
16EE-LL	8rc	4raa	.
16C-X	.	.	.
16G-X	4g-X 4cc-X 4gg-X	.	.
16C-	.	.	.
16c-X	.	8raa	.
16C-JJ	.	.	.
16G-LL	8g- 8ee-X	4raa	.
16c-	.	.	.
16G-	8b-L	.	.
16c-	.	.	.
16g-X	8cc-J	8raa	.
16c-JJ	.	.	.
*clefG2	*	*	*
4cc-X	4ee-	8raa	.
.	.	8gg-L	.
[8E-	8dd-	8ggnJ	.
=46	=46	=46	=46
2.E-] 2.d- 2.dd-	[4.gn	8cccnL	.
.	.	8bb-	.
.	.	8ffJ	.
.	8gL]	8ee-	.
.	8f	8raa	.
.	8gJ	8raa	.
*clefF4	*	*	*
4.E- 4.e-	8ccL	4.d- 4.g	.
.	8b-	.	.
.	8ccJ	.	.
=47	=47	=47	=47
8.A-L 8.e-	8.cL	4.a-	.
16A-k 16e-	16ck	.	.
[8A-J [8e-	[8cJ	.	.
8A-L] 8e-]	8cL]	[4.a-	.
8G 8e-	8c	.	.
8GJ 8e-	8cJ	.	.
4.F 4.e-	4.c	8a-L]	.
.	.	8g	.
.	.	8a-J	.
=48	=48	=48	=48
8.CL 8.E- 8.e-	8.A-L 8.a-	4.ee-	.
16Ck 16E- 16e-	16A-k 16a-	.	.
8CJ 8E- 8e-	8A-J 8a-	.	.
8r	8rc	[4.ee-	.
8BB-L 8E- 8d-	8e-L 8g	.	.
8BB--J 8E- 8d-	8e-J 8g	.	.
4.AA- 4.E- 4.c	4.e- 4.a-	8ee-L]	.
.	.	8ddn	.
.	.	8ee-J	.
=49	=49	=49	=49
*	*	*^	*
8.FL 8.d- 8.f	8r	8dd-XL	4.ff	.
.	4f	8f 8cc	.	.
8.DD-J 8.D-	.	.	.	.
.	.	8dd-J	.	.
8.BnL 8.f 8.bn	8r	8ffL	4.gg	.
.	4b	8bn 8een	.	.
8.DD-J 8.D-	.	.	.	.
.	.	8fJ 8ff	.	.
8.B-XL 8.en 8.b-X	8r	8eeL	4.gg	.
.	4b-	8b-X 8ee-X	.	.
8.CCJ 8.C	.	.	.	.
.	.	8enJ 8een	.	.
=50	=50	=50	=50	=50
8.A-L 8.f 8.a-	8r	8ffL	4.aa-	.
.	4cc	8cc 8een	.	.
8.FFJ 8.F	.	.	.	.
.	.	8fJ 8ff	.	.
8.dnL 8.a- 8.ddn	8r	8aa-L	4.bb-	.
.	4dd	8ddn 8gg	.	.
8.FF-XJ 8.F-X	.	.	.	.
.	.	8a-J 8aa-	.	.
8.d-XL 8.g 8.dd-X	8r	8ggL	4.bbn	.
.	4dd-	8dd-X 8gg-X	.	.
8.EE-J 8.E-	.	.	.	.
.	.	8gJ 8ggn	.	.
*	*	*v	*v	*
=51	=51	=51	=51
8.AAA-L 8.AA-	8rc	4.cc 4.aa- 4.ccc	.
.	16rc	.	.
16Ck 16E- 16c	16e- 16a- 16ee-	.	.
[8AA-J [8E- [8A-	8e- 8a- 8ee-	.	.
8AA-L] 8E-] 8A-]	8cL 8a- 8ee-	[4.cc 4.aa- [4.ccc	.
8GG 8C 8G	8A- 8e- 8cc	.	.
8GGJ 8C 8G	8A-J 8e- 8a-	.	.
4.FFn 4.C 4.Fn	4.A- 4.e-	8ccL] 8ccc]	.
.	.	8bn 8bbn	.
.	.	8ccJ 8ccc	.
=52	=52	=52	=52
8.CCCL 8.CC	8rc	4.ee- 4.eee-	.
.	16rc	.	.
16AA-k 16E-	16A- 16e- 16a-	.	.
[8EE-J [8E-	8A- 8e- 8a-	.	.
8EE-L] 8E-]	8E-L 8A- 8e-	[4.ee- [4.eee-	.
8BBB- 8BB-	8E- 8G 8d- 8e-	.	.
8BBB--J 8BB--	8E-J 8G 8d- 8e-	.	.
4.AAA- 4.AA-	4.E- 4.A- 4.c 4.e-	8ee-L] 8eee-]	.
.	.	8ddn 8dddn	.
.	.	8ee-J 8eee-	.
=53	=53	=53	=53
*	*	*^	*
8.FL 8.d-X 8.f	8r	8rc	4.ff 4.fff	.
.	4f	8fL 8cc	.	.
8.DD-J 8.D-	.	.	.	.
.	.	8dd-XJ	.	.
8.BnL 8.f 8.bn	8r	8rc	4.gg 4.ggg	.
.	4b	8bnL 8een	.	.
8.DD-J 8.D-	.	.	.	.
.	.	8fJ 8ff	.	.
8.B-XL 8.en 8.b-X	8r	8rc	4.gg 4.ggg	.
.	4b-	8b-XL 8ee-X	.	.
8.CCJ 8.C	.	.	.	.
.	.	8enJ 8een	.	.
=54	=54	=54	=54	=54
8.A-L 8.f 8.a-	8r	8rc	4.aa- 4.aaa-	.
.	4cc	8ccL 8een	.	.
8.FFJ 8.F	.	.	.	.
.	.	8fJ 8ff	.	.
8.dnL 8.a- 8.ddn	8r	8rc	4.bb- 4.bbb-	.
.	4dd	8ddnL 8gg	.	.
8.FF-XJ 8.F-X	.	.	.	.
.	.	8a-J 8aa-	.	.
8.d-XL 8.g 8.dd-X	8r	8rc	4.ccc 4.cccc	.
.	4dd-	8dd-XL 8gg-X	.	.
8.EE-J 8.E-	.	.	.	.
.	.	8gnJ 8ggn	.	.
*	*	*v	*v	*
=55	=55	=55	=55
*^	*	*	*
[4.AAA- [4.AA-	8rc	8rc	4.aa- 4.aaa-	.
.	16rc	16rc	.	.
.	16E- 16c	16e- 16a- 16ee-	.	.
.	8E- 8c	8e- 8a- 8ee-	.	.
8AAA-L] 8AA-]	4c 4e-	4a- 4cc	4aa- 4aaa-	.
8FFFn 8FFn	.	.	.	.
[8FFF-XJ [8FF-X	8rc	8rc	[8bbn [8bbbn	.
4FFF-] 4FF-]	4F-X 4Bn 4f-X	4dn 4a- 4ddn	4bb] 4bbb]	.
8EEE- 8EE-	8rc	8rc	8ccc 8cccc	.
=56	=56	=56	=56	=56
[4.AAA- [4.AA-	8rc	8rc	4.aa- 4.aaa-	.
.	16rc	16rc	.	.
.	16E- 16c	16e- 16a- 16ee-	.	.
.	8E- 8c	8e- 8a- 8ee-	.	.
8AAA-L] 8AA-]	4c 4e-	4a- 4cc	4aa- 4aaa-	.
8FFFn 8FFn	.	.	.	.
[8FFF-XJ [8FF-X	8rc	8rc	[8bbn [8bbbn	.
4FFF-] 4FF-]	4F-X 4Bn 4f-X	4dn 4a- 4ddn	4bb] 4bbb]	.
8EEE- 8EE-	8rc	8rc	8ccc 8cccc	.
*v	*v	*	*	*
*	*v	*v	*
=57	=57	=57
8AAA-L 8AA-	8aa-L 8aaa-	.
8E- [8e-	8gg 8ggg	.
8cJ 8e-] 8a- 8cc	8aa-J 8aaa-	.
*clefG2	*	*
4ee- 4ccc	8gggL 8gggg	.
.	8aaa-J 8aaaa-	.
8r	8r	.
4r	4r	.
8r	8r	.
*clefF4	*	*
=58	=58	=58
4r	8%9r	.
8r	.	.
4r	.	.
8r	.	.
8r	.	.
8FFFL 8FF	.	.
[8GGGJ [8GG	.	.
=59:|!	=59:|!	=59:|!
*k[f#c#g#d#a#]	*k[f#c#g#d#a#]	*
*^	*^	*
4rEE	4.GG#	4rc	8raa	.
.	.	.	8c##XL	.
8rEE	.	8rc	8d#J	.
4rEE	4.D# 4.B	4g#	8cc##XL	.
.	.	.	8dd#J	.
8rEE	.	8rc	8raa	.
8rEE	8rc	4rc	4raa	.
8GG#L	[4G#	.	.	.
[8AA#J	.	8rc	8raa	.
=60	=60	=60	=60	=60
*	*	*	*^	*
4AA#]	2.G#_	4.d#	8g#L	8raa	.
.	.	.	8f##X	8raa	.
8BB	.	.	8g#J	8g#	.
8C##XL	.	8eL	8rc	8a#L	.
8D#	.	8d#	8bL	8b	.
8A#J	.	8eJ	8g#J	8cc##XJ	.
4B	4.G#]	4d#	4g#	8dd#L	.
.	.	.	.	8ff##X	.
8B 8e 8g#	.	8b	8ee	8gg#J	.
*v	*v	*	*	*	*
*	*	*v	*v	*
*	*v	*v	*
=61	=61	=61
16GGG#LL 16GG#	8r	.
16E	.	.
16B	16r	.
16E	16b 16ee 16bb	.
16e	[8b [8ee [8bb	.
16EJJ	.	.
16BLL	8bL] 8ee] 8bb]	.
16e	.	.
16B	8g# 8ee 8gg#	.
16e	.	.
16b	8g#J 8ee	.
16eJJ	.	.
*clefG2	*	*
8ee	4r	.
*clefF4	*	*
8FFF##XL 8FF##X	.	.
[8GGG#J [8GG#	8r	.
=62	=62	=62
4GGG#] 4GG#]	4.E 4.B 4.e	.
8AAAn 8AAn	.	.
8AAA#XL 8AA#X	4G# 4e 4g#	.
8BBB 8BB	.	.
8FF##XJ 8F##X	[8B [8e [8b	.
4GG# 4G#	8BL] 8e] 8b]	.
.	8B#X 8b#X	.
8GG# 8E 8G#	8c#J 8g# 8cc#	.
=63	=63	=63
*^	*	*
4rEE	8CCC# 8CC#	8r	.
.	16rc	16r	.
.	16E 16c# 16e	16g# 16cc# 16gg#	.
8rEE	[8E [8c# 8e	[8g# 8cc# [8gg#	.
4rEE	8EL] 8c#]	8g#L] 8gg#]	.
.	8F#X 8e	8an 8ee	.
8rEE	8C#J 8An	8eJ 8cc#	.
8rEE	8E 8G#	8c# 8g#	.
8CC#L	[4C#	8r	.
[8DD#J	.	8r	.
=64	=64	=64	=64
*	*	*^	*
*	*	*	*^	*
4DD#]	2.C#_	4.G#	8c#L	4raa	.
.	.	.	8B#X	.	.
8EE	.	.	8c#J	8c#	.
8FF##XL	.	8AnL	8rc	8d#L	.
8GG#	.	8G#	8eL	8e	.
8D#J	.	8AJ	8c#J	8f##XJ	.
4E	4.C#]	4G#	4c#	8g#L	.
.	.	.	.	8b#X	.
8E 8An 8c#	.	8r	8e	8anJ 8cc#	.
*v	*v	*	*	*	*
*	*	*v	*v	*
*	*v	*v	*
=65	=65	=65
16CCC#LL 16CC#	8r	.
16AAn	.	.
16E	16r	.
16AA	16e 16an 16ee	.
16An	[8e [8a [8ee	.
16AAJJ	.	.
16ELL	8eL] 8a] 8ee]	.
16A	.	.
16E	8c# 8a 8cc#	.
16A	.	.
16e	8c#J 8a	.
16AJJ	.	.
8an	4r	.
8BBB#XL 8BB#X	.	.
[8CC#J [8C#	8r	.
=66	=66	=66
4CC#] 4C#]	4.An 4.e 4.an	.
8DDn 8Dn	.	.
8DD#XL 8D#X	4c# 4a 4cc#	.
8EE 8E	.	.
8BB#XJ 8B#X	[8e [8a [8ee	.
4C# 4c#	8eL] 8a] 8ee]	.
.	8e#X 8ee#X	.
8C# 8An 8c#	8f#J 8cc# 8ff#	.
=67||	=67||	=67||
*k[f#c#g#]	*k[f#c#g#]	*
*^	*^	*
4rEE	8FFF# 8FF#	4rc	8raa	.
.	16rc	.	16raa	.
.	16C# 16A 16f#	.	16cc# 16ff# 16ccc#	.
8rEE	[8A [8f# 8a	8rc	[8cc# 8ff# [8ccc#	.
4rEE	8AL] 8f#]	4rc	8cc#L] 8ccc#]	.
.	8B 8a	.	8dd 8aa	.
8rEE	8F#J 8d	8rc	8aJ 8ff#	.
4.A	8c#L	4.f#	4cc#	.
.	8e	.	.	.
.	8dJ	.	[8b#X	.
*v	*v	*	*	*
=68	=68	=68	=68
8FFF# 8FF#	8f#L	8b#]	.
16r	16r	4cc#	.
16C# 16A	16f#k	.	.
8C# [8A	[8f#J	.	.
8AL]	8f#L]	[4.ff#	.
8BB 8A	8d 8a	.	.
8FF#J 8D	8AJ 8f#	.	.
4.AA 4.C#	4.F# 4.c#	8ff#]	.
.	.	4cc#	.
=69	=69	=69	=69
*	*^	*^	*
8FFF# 8FF#	[2.A	4r	[2.f#	[2.a	.
16r	.	.	.	.	.
16C# 16c#	.	.	.	.	.
[8C# [8c#	.	8r	.	.	.
8C#L] 8c#]	.	4.d	.	.	.
8BB 8B	.	.	.	.	.
8FF#J 8F#	.	.	.	.	.
4.CC# 4.C#	4A]	4.c#	4.f#]	4a]	.
.	8r	.	.	[8g#	.
*	*	*	*v	*v	*
=70	=70	=70	=70	=70
8CCC# 8CC#	[8.c#	4.e#X	8g#]	.
16r	.	.	4a	.
16C# 16c#	8.A 8.c#]	.	.	.
[8C# [8c#	.	.	.	.
8C#L] 8c#]	2.A	2.e#	[4.cc#	.
8BB 8B	.	.	.	.
8DDJ 8D	.	.	.	.
4.CC# 4.C#	.	.	8cc#]	.
.	.	.	4a	.
*	*	*v	*v	*
=71	=71	=71	=71
8DDD 8DD	4.A	[2.f#	.
16r	.	.	.
16AA 16A	.	.	.
[8AA [8A	.	.	.
8AAL] 8A]	4.F# 4.B	.	.
8GG# 8G#	.	.	.
8AAJ 8A	.	.	.
4.DD 4.D	4.B#X	4f#]	.
.	.	[8e#X	.
=72	=72	=72	=72
8AAAA 8AAA	[8.c#	8e#]	.
16r	.	4f#	.
16AA 16A	8.F# 8.c#]	.	.
[8AA [8A	.	.	.
8AAL] 8A]	4F# 4c#	4a	.
8GG# 8G#	.	.	.
8AAJ 8A	8rc	[8B#X	.
4.AAA 4.AA	4.F#	8B#]	.
.	.	4c#	.
=73	=73	=73	=73
8GGG#L 8GG#	4.E#X 4.Bn	4d	.
16r	.	.	.
16GGG#k 16GG#	.	.	.
[8GGG#J [8GG#	.	[8c#	.
8GGG#L] 8GG#]	[4.E#	8c#]	.
8GGG# 8GG#	.	4B	.
8GGG#J 8GG#	.	.	.
4.GGG# 4.GG#	8E#L]	4A#X	.
.	8E#	.	.
.	8E#J	[8B	.
=74	=74	=74	=74
8GGGnL 8GGn	4.E#X 4.B	8B]	.
16r	.	4e#X	.
16GGGk 16GG	.	.	.
[8GGGJ [8GG	.	.	.
8GGGL] 8GG]	4.B 4.e#	4cc#	.
8GGG 8GG	.	.	.
8GGGJ 8GG	.	[8b	.
4GGG 4GG	4.c# 4.e#	8b]	.
.	.	4a	.
8GGG 8GG	.	.	.
=75	=75	=75	=75
16FFF#LL 16FF#	8d 8f#	8a	.
16D	.	.	.
16A	[4a	8cc#L	.
16D	.	.	.
16d	.	[8ddJ	.
16DJJ	.	.	.
16ALL	8aL]	8ddL]	.
16d	.	.	.
16A	8a	8een	.
16d	.	.	.
16a	8ddJ	8ee#XJ	.
16dJJ	.	.	.
16ddLL	8rc	8ff#L	.
16a	.	.	.
16d	8ddL	8gg#X	.
16A	.	.	.
16D	8aJ 8ff#	8aaJ	.
16FFF#JJ	.	.	.
=76	=76	=76	=76
16FF#LL	4rc	8eenL 8eeen	.
16E	.	.	.
16A	.	8b 8ee 8bb	.
16Cn	.	.	.
16e	8rc	8ccnJ 8aa 8cccn	.
16CJJ	.	.	.
16ALL	4ee	8g#L 8gg#	.
16e	.	.	.
16E	.	8a 8aa	.
16A	.	.	.
16e	8rc	8ff#J	.
16AJJ	.	.	.
16aLL	4rc	8eeL	.
16e	.	.	.
16cn	.	8a	.
16A	.	.	.
16E	8rc	8cnJ	.
16FF#JJ	.	.	.
=77	=77	=77	=77
8FFF#L 8FF#	4.D#X 4.A	4cn	.
16r	.	.	.
16FFF#k 16FF#	.	.	.
[8FFF#J [8FF#	.	[8B	.
8FFF#L] 8FF#]	[4.D#	8B]	.
8FFF# 8FF#	.	4A	.
8FFF#J 8FF#	.	.	.
4.FFF# 4.FF#	8D#L]	4G#X	.
.	8D#	.	.
.	8D#J	[8A	.
=78	=78	=78	=78
8FFFnL 8FFn	4.D#X 4.A	8A]	.
16r	.	4d#X	.
16FFFk 16FF	.	.	.
[8FFFJ [8FF	.	.	.
8FFFL] 8FF]	4.A 4.d#	4b	.
8FFF 8FF	.	.	.
8FFFJ 8FF	.	[8a	.
4FFF 4FF	4.B 4.d#	8a]	.
.	.	4gn	.
8FFF 8FF	.	.	.
*	*v	*v	*
=79||	=79||	=79||
*k[]	*k[]	*
*	*^	*
16EEELL 16EE	8c 8e	8g	.
16C	.	.	.
16G	[4g	8bL	.
16C	.	.	.
16c	.	[8ccJ	.
16CJJ	.	.	.
16GLL	8gL]	8ccL]	.
16c	.	.	.
16G	8gJ	8dd	.
16c	.	.	.
16g	8rc	8dd#XJ	.
16cJJ	.	.	.
16ccLL	8rc	8eeL	.
16g	.	.	.
16c	4cc	8f 8ff	.
16G	.	.	.
16C	.	8f#XJ 8ff#X	.
16DDDnJJ	.	.	.
=80	=80	=80	=80
16DDLL	8b 8ffn	8gL 8gg	.
16GG	.	.	.
16F	4ff	8g#X 8gg#X	.
16GG	.	.	.
16B	.	8aJ 8aa	.
16GGJJ	.	.	.
16FLL	4.ff	8b-XL 8bb-X	.
16B	.	.	.
16D	.	8bn 8bbn	.
16B	.	.	.
16f	.	8ccJ 8ccc	.
16GJJ	.	.	.
16gLL	4ff 4bb	8cc#XL 8ccc#X	.
16f	.	.	.
16G	.	8ddn 8dddn	.
16B	.	.	.
16F	8rc	8dd#XJ 8bb 8ddd#X	.
16GGJJ	.	.	.
=81	=81	=81	=81
*^	*	*	*
8rEE	4.E 4.c 4.g	8rc	4.ee 4.ccc 4.eee	.
16rEE	.	16rc	.	.
16GGKL 16E 16c	.	16gKL 16cc 16gg	.	.
8GGJ 8E 8c	.	8gJ 8cc 8gg	.	.
8rEE	2.E 2.c 2.g	8rc	[4.ee 4.ccc [4.eee	.
16rEE	.	16rc	.	.
16GGGKL 16GG	.	[16EKL [16c [16g	.	.
8GGGJ 8GG	.	8EJ] 8c] 8g]	.	.
4.CC 4.C	.	4rc	8eeL] 8eee]	.
.	.	.	8dd#X 8ddd#X	.
.	.	8rc	8eeJ 8eee	.
=82	=82	=82	=82	=82
8rEE	4.B-X 4.e 4.cc	8rc	4.gg 4.ccc 4.ggg	.
16rEE	.	16rc	.	.
16GGKL 16E 16c	.	16gKL 16cc 16gg	.	.
8GGJ 8E 8c	.	8gJ 8cc 8gg	.	.
8rEE	2.B- 2.e 2.cc	8rc	[4.gg 4.ccc [4.ggg	.
16rEE	.	16rc	.	.
16GGGKL 16GG	.	[16EKL [16B-X [16c [16g	.	.
8GGGJ 8GG	.	8EJ] 8B-] 8c] 8g]	.	.
4.CC 4.C	.	4rc	8ggL] 8ggg]	.
.	.	.	8ff#X 8fff#X	.
.	.	8rc	8ggJ 8ggg	.
=83	=83	=83	=83	=83
8rEE	4.A-X 4.d 4.fn 4.cc	8rc	[4.aa-X 4.ccc [4.aaa-X	.
16rEE	.	16rc	.	.
16GGGKL 16GG	.	[16FKL [16A-X [16d	.	.
8GGGJ 8GG	.	8FJ] 8A-] 8d]	.	.
4.CC 4.C	4rc	4rc	8aa-L] 8aaa-]	.
.	.	.	8cc#X 8ccc#X	.
*clefG2	*	*	*	*
.	[8A-X	8rc	8ddJ 8ddd	.
4rc	8.A-L] 8.d 8.f 8.cc	4rc	8eeL 8eee	.
.	.	.	8ffn 8fffn	.
.	[8.cJ	.	.	.
8rc	.	8rc	8aa-J 8aaa-	.
*	*	*v	*v	*
=84	=84	=84	=84
2.rc	8.cL] 8.f 8.a-X 8.dd	8dddL 8dddd	.
.	.	8ddd-X 8dddd-X	.
.	[8.dJ	.	.
.	.	[8cccJ [8cccc	.
.	4.d] 4.a- 4.cc 4.ff	8cccL] 8cccc]	.
.	.	8bb 8bbb	.
.	.	8bb-XJ 8bbb-X	.
4.rc	4.A-X 4.d 4.f 4.cc	8aa-XL 8aaa-X	.
.	.	8gg 8ggg	.
.	.	8ffJ 8fff	.
*clefF4	*	*	*
=85	=85	=85	=85
*	*	*^	*
8rEE	4.E 4.e 4.cc	8rc	4.ee 4.ccc 4.eee	.
16rEE	.	16rc	.	.
16GGKL 16E 16c	.	16gKL 16cc 16gg	.	.
8GGJ 8E 8c	.	8gJ 8cc 8gg	.	.
8rEE	2.E 2.e 2.cc	8rc	[4.ee 4.ccc [4.eee	.
16rEE	.	16rc	.	.
16GGGKL 16GG	.	[16EKL [16c [16g	.	.
8GGGJ 8GG	.	8EJ] 8c] 8g]	.	.
4.CC 4.C	.	4rc	8eeL] 8eee]	.
.	.	.	8dd#X 8ddd#X	.
.	.	8rc	8eeJ 8eee	.
=86	=86	=86	=86	=86
8rEE	4G 4e 4cc	4rc	4gg 4ccc 4ggg	.
8CCL 8C	.	.	.	.
[8FF#XJ [8F#X	8rc	8rc	8raa	.
8FF#L] 8F#]	4rc	4e 4cc 4ee	4raa	.
8GG 8G	.	.	.	.
8D#XJ 8d#X	8rc	[8g [8cc [8gg	8raa	.
4.E 4.e	4rc	4.g] 4.cc] 4.gg]	4raa	.
.	8rc	.	8raa	.
*clefG2	*	*	*	*
=87	=87	=87	=87	=87
8rc	4.c 4.fn 4.a 4.ee-X	8rc	4.aa 4.eee-X 4.fff 4.aaa	.
16rEE	.	16rc	.	.
*clefF4	*	*	*	*
16CKL 16F 16c	.	16aKL 16ee-X 16ff 16aa	.	.
8CJ 8F 8c	.	8aJ 8ee- 8ff 8aa	.	.
*clefG2	*	*	*	*
8rc	4.c 4.f 4.a 4.ee-	8rc	[4.aa 4.eee- 4.fff [4.aaa	.
16rEE	.	16rc	.	.
*clefF4	*	*	*	*
16FFFKL 16FF	.	[16AKL [16e-X [16f	.	.
8FFFJ 8FF	.	8AJ] 8e-] 8f]	.	.
4.CC 4.C	4rc	4rc	8aaL] 8aaa]	.
.	.	.	8gg#X 8ggg#X	.
.	8rc	8rc	8aaJ 8aaa	.
*clefG2	*	*	*	*
=88	=88	=88	=88	=88
8rc	4.A 4.e-X 4.f 4.cc	4rc	4.ccc 4.fff 4.cccc	.
*clefF4	*	*	*	*
8FFFL 8FF	.	.	.	.
[8DD-XJ [8D-X	.	8rc	.	.
8DD-L] 8D-]	4rc	4A 4e-X 4a	4raa	.
8CC 8C	.	.	.	.
8GG-XJ 8G-X	8rc	[8e- [8a [8ee-X	8raa	.
8FFL 8F	4rc	8e-] 8a] 8ee-]	4raa	.
8G- 8g-X	.	4a 4ee- 4aa	.	.
8FJ 8f	8rc	.	8raa	.
*v	*v	*	*	*
*	*v	*v	*
=89||	=89||	=89||
*k[b-e-a-d-]	*k[b-e-a-d-]	*
*	*^	*
16BBBB-LL 16BBB-	8rc	4.ddd- 4.bbb- 4.dddd-	.
16FF	.	.	.
16F	16rc	.	.
16D-	16fKL 16dd-	.	.
16B-	8fJ 8dd-	.	.
16FJJ	.	.	.
4r	16fLL	[4.ddd- 4.bbb- [4.dddd-	.
.	16d-	.	.
.	16b-	.	.
.	16f	.	.
8r	16ff	.	.
.	[16dd-JJ	.	.
4r	4.dd-] 4.bb-	8ddd-L] 8dddd-]	.
.	.	8ccc 8cccc	.
8r	.	8ddd-J 8dddd-	.
=90	=90	=90	=90
8.CCC-XL 8.CC-X	4rc	8fffL 8aaa- 8ffff	.
.	.	8eee- 8aaa- 8eeee-	.
8.AA-J 8.D- 8.A-	.	.	.
.	8rc	[8ddd-J [8aaa- [8dddd-	.
8.D-L 8.A- 8.d-	4rc	8ddd-L] 8aaa-] 8dddd-]	.
.	.	8aa- 8ddd- 8aaa-	.
8.AA-J 8.D- 8.A-	.	.	.
.	8rc	8ffJ 8fff	.
4.F 4.A- 4.f	4.aa-	4ee- 4eee-	.
.	.	8dd- 8ddd-	.
=91	=91	=91	=91
16BBBB-LL 16BBB-	8rc	4.dd- 4.bb- 4.ddd-	.
16FF	.	.	.
16F	16rc	.	.
16D-	16fKL 16dd-	.	.
16B-	8fJ 8dd-	.	.
16FJJ	.	.	.
4r	16fLL	[4.dd- 4.bb- [4.ddd-	.
.	16d-	.	.
.	16b-	.	.
.	16f	.	.
8r	16ff	.	.
.	16dd-JJ	.	.
4rD	4.bb-	8dd-L] 8ddd-]	.
.	.	8cc 8ccc	.
8r	.	8dd-J 8ddd-	.
=92	=92	=92	=92
8.BBBBnL 8.BBBn	4rc	8ffL 8aa- 8fff	.
.	.	8ee- 8aa- 8eee-	.
8.AA-J 8.D- 8.A-	.	.	.
.	8rc	[8dd-J [8aa- [8ddd-	.
8.D-L 8.A- 8.d-	4rc	8dd-L] 8aa-] 8ddd-]	.
.	.	8a- 8dd- 8aa-	.
8.AA-J 8.D- 8.A-	.	.	.
.	8rc	8fJ 8ff	.
4.F 4.A- 4.f	4.a-	4e- 4ee-	.
.	.	8d- 8dd-	.
=93	=93	=93	=93
8.BBBBnL 8.BBBn	4rc	8ffL	.
.	.	8ee-	.
8.AA-J 8.A-	.	.	.
.	8rc	8dd-J	.
8.D-L 8.d-	4rc	8a-L	.
.	.	8f	.
8.AA-J 8.A-	.	.	.
.	8rc	8e-J	.
8F 8f	8rc	8d-	.
*	*clefF4	*	*
8r	[4F	8FL	.
8r	.	[8GJ	.
=94	=94	=94	=94
*^	*	*	*
4rEE	16CCLL	4.F]	4G]	.
.	16FF	.	.	.
.	16D-	.	.	.
.	16FF	.	.	.
8rEE	16F	.	8A-	.
.	16CJJ	.	.	.
4rEE	16FLL	4rEE	4rc	.
.	16d-	.	.	.
.	16F	.	.	.
.	16C	.	.	.
8rEE	16D-	8rEE	8rc	.
.	16FFJJ	.	.	.
8rEE	8CC	4rEE	8rc	.
*clefG2	*	*clefG2	*	*
8A-L	[4f	.	8ccL 8ff	.
[8d-J	.	8rc	[8bnJ [8ff [8gg	.
=95	=95	=95	=95	=95
4d-]	2.f_	4rc	4b] 4ff] 4gg]	.
8c	.	8rc	8cc 8aa-	.
8gL	.	4ff	8ffL 8bbn	.
8a-	.	.	8ccc	.
8bnJ	.	8rc	[8aa-J 8ddd- 8fff	.
8cc	8f]	8rc	8aa-] 8ccc 8aaa-	.
*	*	*clefF4	*	*
8rc	8raa	[4B-	8B-XL	.
8rc	8raa	.	[8cJ	.
*clefF4	*	*	*	*
=96	=96	=96	=96	=96
4rEE	16CCLL	4.F 4.B-]	4c]	.
.	16FF	.	.	.
.	16D-	.	.	.
.	16FF	.	.	.
8rEE	16F	.	8d-	.
.	16CJJ	.	.	.
4rEE	16FLL	4rEE	4rc	.
.	16B-	.	.	.
.	16F	.	.	.
.	16C	.	.	.
8rEE	16D-	8rEE	8rc	.
.	16FFJJ	.	.	.
8rEE	8CC	4rEE	8rc	.
*clefG2	*	*clefG2	*	*
8d-L	[4b-	.	8ffL 8bb-	.
[8g-XJ	.	8rc	[8eenJ [8bb- [8ccc	.
=97	=97	=97	=97	=97
4g-]	2.b-_	4rc	4ee] 4bb-] 4ccc]	.
8f	.	8rc	8ff 8ddd-	.
8ccL	.	4bb-	8bb-L 8eeen	.
8dd-	.	.	8fff	.
8eenJ	.	8rc	[8ddd-J 8ggg-X 8bbb-	.
8ff	8b-]	8rc	8ddd-] 8fff 8dddd-	.
8rc	8raa	[4e-	8e-XL	.
8rc	8raa	.	[8fJ	.
*v	*v	*	*	*
*clefF4	*	*	*
=98	=98	=98	=98
16CCLL	4.B- 4.e-]	4f]	.
16GG-X	.	.	.
16E-	.	.	.
16GG-	.	.	.
16B-	.	8g-X	.
16E-JJ	.	.	.
16B-LL	4rc	4raa	.
16e-	.	.	.
16B-	.	.	.
16E-	.	.	.
16B-	8rc	8raa	.
16GG-JJ	.	.	.
8CC	4rc	8raa	.
8r	.	8a-L	.
8r	8rc	[8b-J	.
=99	=99	=99	=99
16CCLL	4.c 4.e- 4.a-	4b-]	.
16AA-	.	.	.
16E-	.	.	.
16C	.	.	.
16A-	.	8cc	.
16e-JJ	.	.	.
16CCLL	4f 4a-	8dd-L	.
16AA-	.	.	.
16D-	.	8ee-	.
16C	.	.	.
16A-	8a- 8ff	8dd-J	.
16d-JJ	.	.	.
16d-LL	4.b-	4g-X 4gg-X	.
16G-X	.	.	.
16D-	.	.	.
16GG-XJJ	.	.	.
8r	.	8f 8ff	.
=100	=100	=100	=100
8CCC 8CC	2.b-	2.en 2.een	.
16FF#XLL	.	.	.
16GG	.	.	.
16D-	.	.	.
16CJJ	.	.	.
16D-LL	.	.	.
16G	.	.	.
16F#X	.	.	.
16G	.	.	.
16d-	.	.	.
16d-JJ	.	.	.
16d-LL	4.b-	4g-X 4gg-X	.
16G-X	.	.	.
16D-	.	.	.
16GG-XJJ	.	.	.
8r	.	8f 8ff	.
=101	=101	=101	=101
8CCC 8CC	2.b-	2.en 2.een	.
16FF#XLL	.	.	.
16GG	.	.	.
16D-	.	.	.
16CJJ	.	.	.
16D-LL	.	.	.
16G	.	.	.
16F#X	.	.	.
16G	.	.	.
16d-	.	.	.
16d-JJ	.	.	.
16d-LL	4.b-	4g-X 4gg-X	.
16G-X	.	.	.
16D-	.	.	.
16GG-XJJ	.	.	.
8r	.	8f 8ff	.
*	*v	*v	*
=102	=102	=102
8CCC 8CC	8en 8b- 8een	.
8BnL 8bn	8bbnL 8bbbn	.
8cJ 8cc	8cccJ 8cccc	.
8d-L 8dd-	8ddd-L 8dddd-	.
8G-X 8g-X	8gg-X 8ggg-X	.
8GnJ 8gn	8ggnJ 8gggn	.
8A-L 8a-	8aa-L 8aaa-	.
8BBn 8B	8bn 8bbn	.
8CJ 8c	8ccJ 8ccc	.
=103	=103	=103
8D-L 8d-	8dd-L 8ddd-	.
8GG-X 8G-X	8g-X 8gg-X	.
8GGnJ 8Gn	8gnJ 8ggn	.
8AA-L 8A-	8a-L 8aa-	.
8BBBn 8BBn	8Bn 8bn	.
8CCJ 8C	8cJ 8cc	.
8DD- 8D-	8d- 8dd-	.
8FFFL 8FF	8r	.
[8GGGJ [8GG	8r	.
=104	=104	=104
4GGG] 4GG]	4.F 4.c 4.f	.
8AAA- 8AA-	.	.
8BBBnL 8BBn	4A- 4f 4a-	.
8CC 8C	.	.
8GGJ 8G	[8c [8f [8cc	.
4AA- 4A-	8cL] 8f] 8cc]	.
.	8en 8een	.
8A- 8d- 8a-	8fJ 8bn 8ff	.
=105	=105	=105
4.FFF 4.FF	8r	.
.	16GLL	.
.	16c	.
.	16f	.
.	16gJJ	.
4.C 4.G [4.c	16ccLL	.
.	16ff	.
.	16gg	.
.	16ccc	.
.	16fff	.
.	16gggJJ	.
8A- 8c] 8f 8a-	8aa- 8fff 8aaa-	.
8FFFL 8FF	8r	.
[8GGGJ [8GG	8r	.
=106	=106	=106
4GGG] 4GG]	4.F 4.c 4.f	.
8AAA- 8AA-	.	.
8BBBnL 8BBn	4A- 4f 4a-	.
8CC 8C	.	.
8GGJ 8G	[8c [8f [8cc	.
4AA- 4A-	8cL] 8f] 8cc]	.
.	8en 8een	.
8A- 8d- 8a-	8fJ 8bn 8ff	.
=107	=107	=107
*	*^	*
4.FFF 4.FF	4rc	8raa	.
.	.	16GLL	.
.	.	16d-	.
.	8rc	16f	.
.	.	16gJJ	.
4.D- 4.G [4.d-	4rc	16dd-LL	.
.	.	16ff	.
.	.	16gg	.
.	.	16ddd-	.
.	8rc	16fff	.
.	.	16gggJJ	.
8A- 8d-] 8f 8a-	4rc	8aa- 8fff 8aaa-	.
8r	.	8AnL 8an	.
8r	[8f	[8B-XJ [8b-X	.
=108	=108	=108	=108
8GGG-X 8GG-X	4.f]	4B-] 4b-]	.
16GG-LL	.	.	.
16BB-	.	.	.
16GG-	.	8c 8cc	.
16FJJ	.	.	.
16BB-LL	4.b-	8d-L 8dd-	.
16B-	.	.	.
16BB-	.	8en 8een	.
16F	.	.	.
16B-	.	8fJ 8ff	.
16FJJ	.	.	.
8f	4.ff	4cc 4ccc	.
8GGG-L 8GG-	.	.	.
[8GGGnJ [8GGn	.	8b- 8bb-	.
*	*v	*v	*
=109	=109	=109
4GGG] 4GG] 4F 4B- 4f	4.b- 4.ff 4.bb-	.
8CC 8C	.	.
8DD-L 8D-	16aanLL	.
.	16ff	.
8GG 8G	16an	.
.	16ff	.
8CJ 8c	16f	.
.	16AnJJ	.
4.D- 4.d-	16fLL	.
.	16aJ	.
.	8ffJ	.
.	8b- 8bb-	.
=110	=110	=110
*	*^	*
[4.DDD- [4.DD-	4.ff	8bnL 8bbn	.
.	.	8b-X 8bb-X	.
.	.	8bnJ 8bbn	.
8DDD-L] 8DD-]	4.bb	4.gg 4.ggg	.
8GG 8G	.	.	.
8FJ 8f	.	.	.
4.Bn 4.bn	4.gg	4ff 4fff	.
.	.	8een 8eeen	.
=111	=111	=111	=111
*^	*	*	*
4rEE	8.CCCL 8.CC	4.gg	8eenL 8eeen	.
.	.	.	8bn 8bbn	.
.	8.GGJ 8.G	.	.	.
8rEE	.	.	8ccJ 8ccc	.
*clefG2	*	*	*	*
4rc	4.en 4.g 4.cc 4.gg	4rc	8bbL 8ggg 8bbbn	.
.	.	.	8cccJ 8cccc	.
8rc	.	8rc	8raa	.
4rc	8raa	8rc	4raa	.
.	8raa	8enL	.	.
*clefF4	*	*	*	*
8F	[8An [8c	[8fJ	8raa	.
=112	=112	=112	=112	=112
[2.E-X	4.A] 4.c]	4f]	4raa	.
.	.	8g#X	8raa	.
.	[4.An [4.c 4.f	4.an	8raa	.
.	.	.	8bnL	.
.	.	.	[8ccJ	.
4E-]	4A] 4c]	8enL 8een	4cc]	.
.	.	8f 8ff	.	.
8Dn 8dn	8A	8f#XJ 8ddn 8ff#X	8raa	.
=113	=113	=113	=113	=113
4rEE	16DDDnLL 16DDn	8ff#XL 8dddn 8fff#X	8%9ryy	.
.	16AAn	.	.	.
.	16Dn	8ddn 8ff# 8ddd	.	.
.	16AA	.	.	.
8rEE	16An	[8anJ [8dd [8aan	.	.
.	16AAJJ	.	.	.
4rEE	16DLL	8aL] 8dd] 8aa]	.	.
.	16A	.	.	.
.	16D	8f#X 8dd 8ff#	.	.
.	16A	.	.	.
8rEE	16dn	8f#J 8dd	.	.
.	16AJJ	.	.	.
4rEE	4an	8r	.	.
.	.	8f#L	.	.
8G	[8Bn [8d	[8gnJ	.	.
=114	=114	=114	=114	=114
[2.Fn	4.B] 4.d]	4g]	4raa	.
.	.	8a#X	8raa	.
.	[4.Bn [4.dn 4.g	4.bn	8raa	.
.	.	.	8cc#XL	.
.	.	.	[8ddnJ	.
4F]	4B] 4d]	8f#XL 8ff#X	4dd]	.
.	.	8g 8gg	.	.
8En	8B 8en	8g#XJ 8een 8gg#X	8raa	.
*v	*v	*	*	*
=115	=115	=115	=115
16EEEnLL 16EEn	8gg#XL 8eeen 8ggg#X	8%9ryy	.
16BBn	.	.	.
16En	8een 8gg# 8eee	.	.
16BB	.	.	.
16Bn	[8bnJ [8ee [8bbn	.	.
16BBJJ	.	.	.
16ELL	8bL] 8ee] 8bb]	.	.
16B	.	.	.
16E	8g#X 8ee 8gg#	.	.
16B	.	.	.
16en	8g#J 8ee	.	.
16BJJ	.	.	.
8bn	8r	.	.
8r	8fff##XL	.	.
8r	[8gg#J [8eee [8ggg#	.	.
=116	=116	=116	=116
16DDD#XLL 16DD#X	8gg#L] 8eee] 8ggg#]	8%9ryy	.
16BBn	.	.	.
16En	8een 8gg#X 8eeen	.	.
16BB	.	.	.
16Bn	[8bnJ [8ee [8bbn	.	.
16BBJJ	.	.	.
16ELL	8bL] 8ee] 8bb]	.	.
16B	.	.	.
16E	8g#X 8ee 8gg#	.	.
16B	.	.	.
16en	8g#J 8ee	.	.
16BJJ	.	.	.
8bn	8r	.	.
8r	8aaa#XL	.	.
8r	[8bbJ [8eee [8ggg#X [8bbbn	.	.
=117	=117	=117	=117
16DDDnLL 16DDn	8bbL] 8eee] 8ggg#] 8bbb]	8%9ryy	.
16BBn	.	.	.
16En	8gg#X 8eeen 8ggg#X	.	.
16BB	.	.	.
16Bn	8eenJ 8gg# 8eee	.	.
16BBJJ	.	.	.
16ELL	8bnL 8ee 8bbn	.	.
16B	.	.	.
16en	8g#X 8ee 8gg#	.	.
16B	.	.	.
16E	8g#J 8ee	.	.
16BBJJ	.	.	.
16DDLL	8bbL 8fff 8aaa-X 8bbbn	.	.
16AA-X	.	.	.
16F	8aa- 8fff 8aaa-	.	.
16AA-	.	.	.
16A-	8ffJ 8bb 8fff	.	.
16FJJ	.	.	.
=118	=118	=118	=118
16DDD-XLL 16DD-X	8bnL 8ff 8bbn	4raa	.
16AA-	.	.	.
16F	8a- 8ff 8aa-	.	.
16AA-	.	.	.
16Bn	8fJ 8b 8ff	8raa	.
16FJJ	.	.	.
16d-LL	8rc	4raa	.
16A-	.	.	.
16D-	8B-XL 8f 8b-X	.	.
16A-	.	.	.
16D-	8BnJ 8f 8bn	8raa	.
16AA-JJ	.	.	.
16DD-LL	8BL 8f 8b	8raa	.
16GGn	.	.	.
16F	8gn 8ggn	4b	.
16GG	.	.	.
16B	8fJ 8ff	.	.
16FJJ	.	.	.
=119	=119	=119	=119
16CCLL	8enL 8een	4cc	.
16GG	.	.	.
16En	8g 8gg	.	.
16AA-	.	.	.
16C	8cJ 8cc	8g	.
16GJJ	.	.	.
16D-LL	4c 4cc	4.f	.
16F	.	.	.
16c	.	.	.
16F	.	.	.
16A-	8Bn 8bn	.	.
16d-JJ	.	.	.
16fLL	4rc	4raa	.
16g	.	.	.
16a-	.	.	.
16d-	.	.	.
16A-	8rc	8raa	.
16FJJ	.	.	.
=120	=120	=120	=120
16d-LL	4rc	8raa	.
16F	.	.	.
16G	.	8fL 8bn	.
16B-X	.	.	.
16A-	8rc	8fJ 8b	.
16CJJ	.	.	.
4.d-	4rc	16raa	.
.	.	16fLL	.
.	.	16b	.
.	.	16f	.
.	8rc	16ff	.
.	.	[16bJJ	.
*clefG2	*	*	*
16dd-LL	8rc	8bL] 8ff 8bbn	.
16a-	.	.	.
16d-	4bb	8gg 8ggg	.
16a-	.	.	.
16d-	.	8ffJ 8fff	.
16FJJ	.	.	.
=121	=121	=121	=121
16CLL	4ccc	8eenL 8eeen	.
16G	.	.	.
16en	.	8gg 8ggg	.
16A-	.	.	.
16c	8gg	8ccJ 8ccc	.
16gJJ	.	.	.
16d-LL	4.ff	4cc 4ccc	.
16f	.	.	.
16cc	.	.	.
16f	.	.	.
16a-	.	8bn 8bbn	.
16dd-JJ	.	.	.
16ffLL	4rc	4raa	.
16gg	.	.	.
16aa-	.	.	.
16dd-	.	.	.
16a-	8rc	8raa	.
16fJJ	.	.	.
=122	=122	=122	=122
16dd-LL	4rc	8ffL 8bbn	.
16f	.	.	.
16g	.	16r	.
16b-X	.	16ffk 16bb	.
16a-	8rc	8ffJ 8bb	.
16cJJ	.	.	.
4.ff	4rc	16raa	.
.	.	16ffLL	.
.	.	16bb	.
.	.	16ff	.
.	8rc	16fff	.
.	.	[16bbJJ	.
16ddd-LL	8rc	8bbL] 8fff 8bbbn	.
16ff	.	.	.
16a-	4bbb	8ggg 8gggg	.
16ff	.	.	.
16a-	.	8fffJ 8ffff	.
[16cJJ	.	.	.
=123	=123	=123	=123
*^	*	*	*
4rc	4c] 4g 4een	4rc	16eeenLL 16cccc 16eeeen	.
.	.	.	16ggg	.
.	.	.	16cccc	.
.	.	.	16ccc	.
8rc	8rc	8rc	16cccc	.
.	.	.	16gggJJ	.
4rc	4raa	4rc	16cccLL	.
.	.	.	16ggg	.
.	.	.	16ccc	.
.	.	.	16gg	.
8rc	8raa	8rc	16ccc	.
.	.	.	16ccJJ	.
4.c	8a-L	4.ra	16bnLL	.
.	.	.	16ff	.
.	8ee-X	.	16bbn	.
.	.	.	16fff	.
.	8dd-J	.	16bb	.
.	.	.	16ffJJ	.
*v	*v	*	*	*
*	*v	*v	*
=124	=124	=124
16ccLL	4.een 4.ccc 4.eeen	.
16g	.	.
16cc	.	.
16c	.	.
16cc	.	.
16gJJ	.	.
16cLL	4r	.
16g	.	.
16c	.	.
16G	.	.
16c	8r	.
16CJJ	.	.
*clefF4	*	*
8D-L 8d-	8bnL 8ff 8bbn	.
8F 8f	8gg 8bb 8ggg	.
8fJ 8bn	8ffJ 8bb 8fff	.
=125||	=125||	=125||
*k[b-]	*k[b-]	*
8CL 8c	[4.ee 4.ccc [4.eee	.
8G 8e	.	.
8eJ 8cc	.	.
4.e 4.cc	8eeL] 8eee]	.
.	8dd#X 8ddd#X	.
.	8eeJ 8eee	.
8BB-L 8B-	4gg 4ccc 4ggg	.
8G 8e 8cc	.	.
8AAJ 8A	8ff 8ccc 8fff	.
=126	=126	=126
8FL 8c 8f	[4.cc 4.ff [4.ccc	.
8c 8f 8cc	.	.
8FJ 8c 8f	.	.
8AA-XL 8A-X	8ccL] 8ff#X 8ccc]	.
8F#X 8c 8f#X	8bn 8ff# 8bbn	.
8cJ 8f# 8cc	8ccJ 8ff# 8ccc	.
8GGL 8G	4ee 4gg 4eee	.
8E 8c 8g 8cc	.	.
8FFnJ 8Fn	8ddn 8aa-X 8dddn	.
=127	=127	=127
8DL 8A-X 8c	[4.a-X [4.dd [4.aa-X	.
8A- 8c 8a-X	.	.
8DJ 8A- 8c	.	.
8FF-XL 8F-X	8a-L] 8dd] 8aa-]	.
8D 8A- 8d	8g 8dd 8gg	.
8A-J 8d 8a-	8a-J 8dd 8aa-	.
8EE-XL 8E-X	8ccL 8ee-X 8ccc	.
8A- 8c 8a-	8en 8cc 8een	.
8DDJ 8D	8fnJ 8cc 8ffn	.
=128	=128	=128
*	*^	*
8DD-XL 8D-X	4rc	8a-XL 8bn 8aa-X	.
8Fn 8Bn 8fn	.	8g 8b 8gg	.
8D-J 8F 8B	8rc	8fJ 8b 8ff	.
8DD-L 8D-	4rc	8eL 8b 8ee	.
8D- 8G 8B	.	8f 8b 8ff	.
8GJ 8B 8f	8rc	8bJ 8ff 8bbn	.
4B 4f 4bn	4bb	8ggL 8ggg	.
.	.	8ff 8fff	.
[8CC [8C	8rc	8eeJ 8ccc 8eee	.
*	*v	*v	*
=129	=129	=129
8CCL] 8C] 8G 8e 8cc	[4.ee 4.ccc [4.eee	.
8GG 8G	.	.
8EJ 8e	.	.
4.C 4.c	8eeL] 8eee]	.
.	8ff 8fff	.
.	8ff#XJ 8fff#X	.
8CL 8c	4aan 4ddd 4aaan	.
8A 8f#X 8dd	.	.
8BB-XJ 8B-X	8gg 8ddd 8ggg	.
=130	=130	=130
8GL 8d 8g	[4.dd 4.gg [4.ddd	.
8d 8g 8dd	.	.
8GJ 8B- 8g	.	.
8BB-L 8B-	8ddL] 8gg#X 8ddd]	.
8G#X 8d 8g#X	8cc#X 8gg# 8ccc#X	.
8dJ 8g# 8dd	8ddJ 8gg# 8ddd	.
8AAL 8A	4ffn 4aa 4fffn	.
8Fn 8d 8a 8dd	.	.
8GGnJ 8Gn	8ee 8bb- 8eee	.
=131	=131	=131
8EL 8B- 8d	[4.b- [4.ee [4.bb-	.
8B- 8d 8b-	.	.
8EJ 8B- 8d	.	.
8GG-XL 8G-X	8b-L] 8ee] 8bb-]	.
8E 8B- 8e	8a 8ee 8aa	.
8B-J 8e 8b-	8b-J 8ee 8bb-	.
8FFL 8F	8ddL 8ff 8ddd	.
8B- 8d 8b-	8f#X 8dd 8ff#X	.
8EEJ 8E	8gnJ 8dd 8ggn	.
=132	=132	=132
8EE-XL 8E-X	8b-L 8dd-X 8bb-	.
8B- 8d-X 8b-	8a 8dd- 8aa	.
8E-J 8B- 8d-	8gJ 8dd- 8gg	.
8EEnL 8En	8f#XL 8cc 8ff#X	.
8E 8B- 8c	8g 8cc 8gg	.
8B-J 8c 8g	8ccJ 8gg 8ccc	.
8CCL 8C	8aaL 8ccc 8aaa	.
8B- 8e 8cc	8gg 8ccc 8ggg	.
[8AJ [8fn [8cc	8ffnJ 8ccc 8fffn	.
=133	=133	=133
*^	*^	*
4rEE	8FFL 8F 8A] 8f] 8cc]	4rc	[4.ff [4.fff	.
.	8C 8c	.	.	.
8rEE	8AJ 8a	8rc	.	.
4rEE	4.A 4.a	4rc	32%3ffL] 32%3fff]	.
.	.	.	32%3cc 32%3ccc	.
.	.	.	32%3bn 32%3bbn	.
8rEE	.	8rc	.	.
.	.	.	32%3ccJ 32%3ccc	.
32%3rEE	4.rc	4ff 4bb	32%3cc#XL 32%3ccc#X	.
32%3GG#XL 32%3G#X	.	.	32%3dd 32%3ddd	.
32%3G# 32%3f 32%3bn	.	.	32%3.gg 32%3.bb 32%3.ggg	.
.	.	8rc	.	.
[32%3AAJ [32%3A	.	.	.	.
.	.	.	64%3ffJk 64%3cccn 64%3fff	.
*	*	*v	*v	*
=134	=134	=134	=134
32%3AAL] 32%3A]	[4c	[4.ccn [4.ff [4.cccn	.
32%3F 32%3c 32%3f	.	.	.
32%3c 32%3f 32%3cc	.	.	.
.	16cLL]	.	.
32%3FJ 32%3c 32%3f	.	.	.
.	16cJJ	.	.
32%3rEE	2.c	32%3ccL] 32%3ff] 32%3ccc]	.
32%3AA-XL 32%3A-X	.	32%3cc 32%3ff#X 32%3ccc	.
32%3F#X 32%3c 32%3f#X	.	32%3bn 32%3ff# 32%3bbn	.
32%3cJ 32%3f# 32%3cc	.	32%3ccJ 32%3ff# 32%3ccc	.
32%3rEE	.	32%3dd#XL 32%3ddd#X	.
32%3GGL 32%3G	.	32%3ffn 32%3gg 32%3fffn	.
32%3E 32%3c 32%3g 32%3cc	.	32%3.ee 32%3.ccc 32%3.eee	.
[32%3FFnJ [32%3Fn	.	.	.
.	.	64%3ddnJk 64%3aa-X 64%3dddn	.
=135	=135	=135	=135
32%3FFL] 32%3F]	[4c	[4.a-X [4.dd [4.aa-X	.
32%3D 32%3A-X 32%3c	.	.	.
32%3A- 32%3c 32%3a-X	.	.	.
.	16cLL]	.	.
32%3DJ 32%3A- 32%3c	.	.	.
.	16B-XJJ	.	.
32%3rEE	2.A-X	32%3a-L] 32%3dd] 32%3aa-]	.
32%3FF-XL 32%3F-X	.	32%3a- 32%3dd 32%3aa-	.
32%3D 32%3A- 32%3d	.	32%3g 32%3dd 32%3gg	.
32%3A-J 32%3d 32%3a-	.	32%3a-J 32%3dd 32%3aa-	.
32%3rEE	.	32%3ccL 32%3ee-X 32%3ccc	.
32%3EE-XL 32%3E-X	.	32%3f 32%3cc 32%3ff	.
32%3A- 32%3c 32%3a-	.	32%3en 32%3cc 32%3een	.
32%3DDJ 32%3D	.	32%3fJ 32%3cc 32%3ff	.
=136	=136	=136	=136
*	*	*^	*
8rEE	4.Fn	4rc	32%3a-XL 32%3bn 32%3aa-X	.
.	.	.	32%3g 32%3b 32%3ff	.
8DD-XL 8D-X	.	.	.	.
.	.	.	32%3f#X 32%3b 32%3ff#X	.
8D-J 8Fn 8Bn	.	8rc	.	.
.	.	.	32%3fnJ 32%3b 32%3ffn	.
32%3rEE	2.G	4rc	32%3eL 32%3b 32%3ee	.
32%3DD-L 32%3D-	.	.	32%3f 32%3b 32%3ff	.
32%3D- 32%3G 32%3Bn	.	.	32%3b-X 32%3ff 32%3bb-X	.
.	.	8rc	.	.
32%3GJ 32%3B 32%3f	.	.	32%3bnJ 32%3ff 32%3bbn	.
4B 4f 4bn	.	4bb	8ggL 8ggg	.
.	.	.	8.ff 8.fff	.
[8CC [8C	.	8rc	.	.
.	.	.	16eeJk 16ccc 16eee	.
*	*	*v	*v	*
=137	=137	=137	=137
8CCL] 8C] 8G 8e 8cc	8%9ryy	[4.ee 4.ccc [4.eee	.
8GG 8G	.	.	.
8EJ 8e	.	.	.
4.C 4.c	.	32%3eeL] 32%3eee]	.
.	.	32%3ee 32%3eee	.
.	.	32%3dd#X 32%3ddd#X	.
.	.	32%3eeJ 32%3eee	.
32%3r	.	32%3ffL 32%3fff	.
32%3CL 32%3c	.	32%3ff#X 32%3fff#X	.
32%3An 32%3f#X 32%3ddn	.	32%3.aan 32%3.dddn 32%3.aaan	.
[32%3BB-J [32%3B-	.	.	.
.	.	64%3ggJk 64%3ddd 64%3ggg	.
=138	=138	=138	=138
32%3BB-L] 32%3B-]	[4d	[4.dd [4.gg [4.ddd	.
32%3G 32%3d 32%3g	.	.	.
32%3d 32%3g 32%3dd	.	.	.
.	16dLL]	.	.
32%3GJ 32%3d 32%3g	.	.	.
.	16dJJ	.	.
32%3rEE	2.d	32%3ddL] 32%3gg] 32%3ddd]	.
32%3BB-L 32%3B-	.	32%3dd 32%3gg#X 32%3ddd	.
32%3G#X 32%3d 32%3g#X	.	32%3cc#X 32%3gg# 32%3ccc#X	.
32%3dJ 32%3g# 32%3dd	.	32%3ddJ 32%3gg# 32%3ddd	.
32%3rEE	.	32%3eeL 32%3eee	.
32%3AAL 32%3A	.	32%3ggn 32%3aa 32%3ggg	.
32%3F 32%3d 32%3a 32%3dd	.	32%3.ffn 32%3.ddd 32%3.fffn	.
[32%3GGnJ [32%3Gn	.	.	.
.	.	64%3eeJk 64%3bb- 64%3eee	.
=139	=139	=139	=139
32%3GGL] 32%3G]	[4d	[4.b- [4.ee [4.bb-	.
32%3E 32%3B- 32%3d	.	.	.
32%3B- 32%3d 32%3b-	.	.	.
.	16dLL]	.	.
32%3EJ 32%3B- 32%3d	.	.	.
.	16cJJ	.	.
32%3rEE	2.B-	32%3b-L] 32%3ee] 32%3bb-]	.
32%3GG-XL 32%3G-X	.	32%3b- 32%3ee 32%3bb-	.
32%3E 32%3B- 32%3e	.	32%3a 32%3ee 32%3aa	.
32%3B-J 32%3e 32%3b-	.	32%3b-J 32%3ee 32%3bb-	.
8rEE	.	32%3ddL 32%3ff 32%3ddd	.
.	.	32%3g 32%3dd 32%3gg	.
8FFL 8F	.	.	.
.	.	32%3f#X 32%3dd 32%3ff#X	.
8B-J 8d 8b-	.	.	.
.	.	32%3gJ 32%3dd 32%3gg	.
*v	*v	*	*
=140	=140	=140
*	*^	*
8.B-L 8.d 8.b-	16%3dd	32%3b-L 32%3bb-	.
.	.	32%3a 32%3aa	.
16EEk 16E	16%3dd	32%3a-X 32%3aa-X	.
8EEJ 8E	.	.	.
.	.	32%3gJ 32%3gg	.
8.EEL 8.E	16%3dd	32%3f#XL 32%3ff#X	.
.	.	32%3g 32%3gg	.
8.EJ 8.B- 8.g	16%3gg	32%3cc#X 32%3ccc#X	.
.	.	32%3ddJ 32%3ddd	.
*clefG2	*	*	*
4d 4b- 4dd	4ddd	8aanL 8aaan	.
.	.	8.gg 8.ggg	.
*clefF4	*	*	*
8EE 8E	8rc	.	.
.	.	[16gg-XJk [16ddd-X [16ggg-X	.
=141	=141	=141	=141
8B-L 8b-	4rc	32%3gg-L] 32%3ddd-] 32%3ggg-]	.
.	.	32%3gg-X 32%3ddd-X 32%3ggg-X	.
8d-X 8g-X 8dd-X	.	.	.
.	.	32%3ff 32%3ddd- 32%3fff	.
8EE-XJ 8E-X	8rc	.	.
.	.	32%3gg-J 32%3ddd- 32%3ggg-	.
*clefG2	*	*	*
8B-L 8b-	4.ggg-	32%3ddd-XL 32%3dddd-	.
.	.	32%3eee-X 32%3eeee-X	.
8g-X 8gg-X	.	.	.
.	.	32%3ccc 32%3cccc	.
8d-XJ 8dd-X	.	.	.
.	.	32%3ddd-J 32%3dddd-	.
4.b- 4.dd- 4.gg- 4.bb-	4.rc	4.ggg- 4.dddd- 4.gggg-	.
*clefF4	*	*	*
=142	=142	=142	=142
8.FL 8.B- 8.f	4rc	32%3raa	.
.	.	32%3fL 32%3b- 32%3ff	.
16DDnk 16Dn	.	32%3en 32%3b- 32%3een	.
8DDJ 8D	8rc	.	.
.	.	32%3fJ 32%3b- 32%3ff	.
8r	4.ff	32%3b-L 32%3bb-	.
.	.	32%3cc 32%3ccc	.
16r	.	.	.
8.F 8.B- 8.f	.	32%3a 32%3aa	.
.	.	32%3b-J 32%3bb-	.
8.FL 8.B- 8.f 8.b-	4rc	32%3raa	.
.	.	32%3fL 32%3b- 32%3ff	.
8.DDJ 8.D	.	32%3e 32%3b- 32%3ee	.
.	8rc	.	.
.	.	32%3fJ 32%3b- 32%3ff	.
=143	=143	=143	=143
8.FL 8.Bn 8.f 8.bn	4.ff	32%3g#XL 32%3gg#X	.
.	.	32%3a#X 32%3aa#X	.
16DD-Xk 16D-X	.	32%3f##X 32%3ff##X	.
8DD-J 8D-	.	.	.
.	.	32%3g#J 32%3gg#	.
32%3r	4rc	32%3BnL 32%3bn	.
32%3DD-L 32%3D-	.	32%3e 32%3b 32%3ee	.
32%3D- 32%3G#X 32%3B	.	32%3fn 32%3b 32%3ffn	.
.	8rc	.	.
32%3G#J 32%3B 32%3f	.	32%3bJ 32%3ff 32%3bbn	.
4B 4f 4b	4rc	4ggn 4bb 4gggn	.
8G# 8f 8g#X	8rc	8ff 8bb 8fff	.
=144	=144	=144	=144
*^	*	*	*
8rEE	4.A 4.f 4.a	8rc	[4.cc 4.ff [4.ccc	.
16rEE	.	16rc	.	.
16C 16A	.	16f 16cc	.	.
8C 8A	.	8f 8cc	.	.
4.C 4.A	4rc	4.f	8ccL] 8ccc]	.
.	.	.	8bn 8bbn	.
.	8rc	.	8ccJ 8ccc	.
8rEE	4A-X 4f 4a-X	8rc	4dd-X 4ff 4ddd-X	.
8Cn 8A- 8c-X	.	8d-X 8f 8dd-	.	.
8rEE	8A- 8f 8a-	8rc	8dd- 8ff 8aa-X	.
*v	*v	*	*	*
=145	=145	=145	=145
16CCnLL 16Cn	8rc	4raa	.
*clefG2	*	*	*
16B-X	.	.	.
16d-X	4dd-X 4gg-X 4ddd-X	.	.
16B-	.	.	.
16b-	.	8raa	.
16B-JJ	.	.	.
16d-LL	4gg- 4bb-X	8raa	.
16b-	.	.	.
16d-	.	8ccL 8ccc	.
16b-	.	.	.
16dd-X	8gg-	8dd-J 8ddd-	.
[16b-JJ	.	.	.
4.b-] 4.dd- 4.bb- 4.ddd-X	4rc	4aa-X 4aaa-X	.
.	8rc	8gg- 8ggg-X	.
*clefF4	*	*	*
=146	=146	=146	=146
*^	*	*	*
8rEE	4.B- 4.g-X 4.b-	8rc	[4.dd-X 4.gg-X [4.ddd-X	.
16rEE	.	16rc	.	.
16C 16B-	.	16g-X 16dd-	.	.
8C 8B-	.	8g- 8dd-	.	.
4.C 4.B-	4rc	4.g-	8dd-L] 8ddd-]	.
.	.	.	8cc 8ccc	.
.	8rc	.	8dd-J 8ddd-	.
8rEE	4An 4f#X 4an	8rc	4ddn 4ff#X 4dddn	.
8C 8A 8c	.	8d 8f#X 8dd	.	.
8rEE	8A 8f# 8a	8rc	8dd 8ff# 8aan	.
*v	*v	*	*	*
=147	=147	=147	=147
16CCLL 16C	8rc	4raa	.
16G	.	.	.
16d	4dd 4gg 4ddd	.	.
16G	.	.	.
16g	.	8raa	.
16GJJ	.	.	.
16dLL	4gg 4bbn	8raa	.
16g	.	.	.
16bn	.	8cc#XL 8ccc#X	.
16g	.	.	.
16d	8gg	8ddJ 8ddd	.
16GJJ	.	.	.
16CLL	4.gg	4ee-X 4eee-X	.
16G	.	.	.
16e-X	.	.	.
16B-X	.	.	.
16b-X	.	8bb-X	.
16e-JJ	.	.	.
*	*v	*v	*
=148	=148	=148
16CCLL 16C	8r	.
16A-X	.	.
16e-X	4ee-X 4aa-X 4cccn 4eee-X	.
16A-	.	.
16a-X	.	.
16A-JJ	.	.
16e-LL	8aa- 8ccc	.
16a-	.	.
16e-	8ggL	.
16a-	.	.
*clefG2	*	*
16ee-X	8aa-J	.
16a-XJJ	.	.
8aa-X	8cccL	.
8r	8aa-	.
8r	8ee-J	.
*clefF4	*	*
=149	=149	=149
16CCLL 16C	8r	.
16C	.	.
16A-X	4e-X 4a-X 4ee-X	.
16C	.	.
16e-X	.	.
16CJJ	.	.
16A-LL	8e- 8a- 8cc	.
16e-	.	.
16A-	8gL	.
16e-	.	.
16a-X	8a-J	.
16e-JJ	.	.
*clefG2	*	*
8ee-X	8ccL	.
8r	8a-	.
8r	8e-J	.
*clefF4	*	*
=150	=150	=150
*	*^	*
4r	4rc	8raa	.
.	.	8dL	.
8r	8rc	8e-XJ	.
4r	4rc	8fL	.
.	.	8g	.
8r	8rc	8a-XJ	.
4r	4cc	8raa	.
.	.	8ee-XL	.
8C	8b-	8eenJ	.
=151	=151	=151	=151
[8qC	.	.	.
2.C] 2.B- 2.b-	[4.en	8aanL	.
.	.	8gg	.
.	.	8ddJ	.
.	8eL]	4.cc	.
.	8d	.	.
.	8eJ	.	.
4.C 4.c	8aL	4.B- 4.e	.
.	8g	.	.
.	8aJ	.	.
=152	=152	=152	=152
8.FL 8.c	8.AL	4.f	.
16Fk 16c	16Ak	.	.
[8FJ [8c	[8AJ	.	.
8FL] 8c]	8AL]	[4.f	.
8E 8c	8A	.	.
8EJ 8c	8AJ	.	.
4.D 4.c	4.A	8fL]	.
.	.	8e	.
.	.	8fJ	.
=153	=153	=153	=153
8.AAL 8.C 8.c	8.FL 8.f	4.cc	.
16AAk 16C 16c	16Fk 16f	.	.
8AAJ 8C 8c	8FJ 8f	.	.
8r	8rc	[4.cc	.
8GGL 8C 8B-	8cL 8e	.	.
8GG-XJ 8C 8B-	8cJ 8e	.	.
4.FF 4.C 4.A	4.c 4.f	8ccL]	.
.	.	8bn	.
.	.	8ccJ	.
=154	=154	=154	=154
*	*	*^	*
8.DL 8.B- 8.d	8r	8b-XL	4.dd	.
.	4d	8d 8a	.	.
8.BBB-J 8.BB-	.	.	.	.
.	.	8b-J	.	.
8.G#XL 8.d 8.g#X	8r	8ddL	4.ee	.
.	4g#	8g#X 8cc#X	.	.
8.BBB-J 8.BB-	.	.	.	.
.	.	8dJ 8dd	.	.
8.GnL 8.c#X 8.gn	8r	8cc#L	4.ee	.
.	4g	8gn 8ccn	.	.
8.AAAJ 8.AA	.	.	.	.
.	.	8c#XJ 8cc#X	.	.
=155	=155	=155	=155	=155
8.FL 8.d 8.f	8r	8ddL	4.ff	.
.	4a	8a 8cc#X	.	.
8.DDJ 8.D	.	.	.	.
.	.	8dJ 8dd	.	.
8.BnL 8.f 8.bn	8r	8ffL	4.gg	.
.	4b	8bn 8ee	.	.
8.DD-XJ 8.D-X	.	.	.	.
.	.	8fJ 8ff	.	.
8.B-XL 8.e 8.b-X	8r	8eeL	4.gg#X	.
.	4b-	8b-X 8ee-X	.	.
8.CCJ 8.C	.	.	.	.
.	.	8enJ 8een	.	.
*	*	*v	*v	*
=156	=156	=156	=156
8.FFFL 8.FF	8rc	4.a 4.ff 4.aa	.
.	16rc	.	.
16AAk 16C 16A	16c 16f 16cc	.	.
[8FFJ [8C [8F	8c 8f 8cc	.	.
8FFL] 8C] 8F]	8AL 8f 8cc	[4.a 4.ff [4.aa	.
8EE 8AA 8E	8F 8c 8a	.	.
8EEJ 8AA 8E	8FJ 8c 8f	.	.
4.DD 4.AA 4.D	4.F 4.c	8aL] 8aa]	.
.	.	8g#X 8gg#X	.
.	.	8aJ 8aa	.
=157	=157	=157	=157
8.AAAAL 8.AAA	8rc	4.cc 4.ccc	.
.	16rc	.	.
16FFk 16C	16F 16c 16f	.	.
[8CCJ [8C	8F 8c 8f	.	.
8CCL] 8C]	8CL 8F 8c	[4.cc [4.ccc	.
8GGG 8GG	8C 8E 8B- 8c	.	.
8GGG-XJ 8GG-X	8CJ 8E 8B- 8c	.	.
4.FFF 4.FF	4.C 4.F 4.A 4.c	8ccL] 8ccc]	.
.	.	8bn 8bbn	.
.	.	8ccJ 8ccc	.
=158	=158	=158	=158
*	*	*^	*
8.DL 8.B- 8.d	8r	8rc	4.dd 4.ddd	.
.	4d	8dL 8a	.	.
8.BBB-J 8.BB-	.	.	.	.
.	.	8b-XJ	.	.
8.G#XL 8.d 8.g#X	8r	8rc	4.ee 4.eee	.
.	4g#	8g#XL 8cc#X	.	.
8.BBB-J 8.BB-	.	.	.	.
.	.	8dJ 8dd	.	.
8.GnL 8.c#X 8.gn	8r	8rc	4.ee 4.eee	.
.	4g	8gnL 8ccn	.	.
8.AAAJ 8.AA	.	.	.	.
.	.	8c#XJ 8cc#X	.	.
=159	=159	=159	=159	=159
8.FL 8.d 8.f	8r	8rc	4.ff 4.fff	.
.	4a	8aL 8cc#X	.	.
8.DDJ 8.D	.	.	.	.
.	.	8dJ 8dd	.	.
8.BnL 8.f 8.bn	8r	8rc	4.gg 4.ggg	.
.	4b	8bnL 8ee	.	.
8.DD-XJ 8.D-X	.	.	.	.
.	.	8fJ 8ff	.	.
8.B-XL 8.e 8.b-X	8r	8rc	4.gg#X 4.ggg#X	.
.	4b-	8b-XL 8ee-X	.	.
8.CCJ 8.C	.	.	.	.
.	.	8enJ 8een	.	.
*	*	*v	*v	*
=160	=160	=160	=160
*^	*	*	*
[4.FFF [4.FF	8rc	8rc	4.ff 4.fff	.
.	16rc	16rc	.	.
.	16C 16A	16c 16f 16cc	.	.
.	8C 8A	8c 8f 8cc	.	.
8FFFL] 8FF]	4A 4c	4f 4a	4ff 4fff	.
8DDD 8DD	.	.	.	.
[8DDD-XJ [8DD-X	8rc	8rc	[8gg#X [8ggg#X	.
4DDD-] 4DD-]	4D-X 4G#X 4d-X	4Bn 4f 4bn	4gg#] 4ggg#]	.
8CCC 8CC	8rc	8rc	8aa 8aaa	.
=161	=161	=161	=161	=161
[4.FFF [4.FF	8rc	8rc	4.ff 4.fff	.
.	16rc	16rc	.	.
.	16C 16A	16c 16f 16cc	.	.
.	8C 8A	8c 8f 8cc	.	.
8FFFL] 8FF]	4A 4c	4f 4a	4ff 4fff	.
8DDDn 8DDn	.	.	.	.
[8DDD-XJ [8DD-X	8rc	8rc	[8ggn [8gggn	.
4.DDD-] 4.DD-]	4.D-X 4.F 4.d-X	4.Bn 4.f 4.bn	4gg] 4ggg]	.
.	.	.	8gg#X 8ggg#X	.
*v	*v	*	*	*
=162	=162	=162	=162
16FFFLL 16FF	4rc	8raa	.
16C	.	.	.
16F	.	16raa	.
16C	.	16aa 16fff 16aaa	.
16c	8rc	[8aa [8fff [8aaa	.
16CJJ	.	.	.
16FLL	4rc	8aaL] 8fff] 8aaa]	.
16c	.	.	.
16F	.	8ff 8aa 8fff	.
16c	.	.	.
16f	8rc	8ccJ 8ccc	.
16cJJ	.	.	.
4cc	4.ff	8aL 8aa	.
.	.	8g#X 8gg#X	.
8r	.	8aJ 8aa	.
=163	=163	=163	=163
16FFFLL 16FF	4rc	8raa	.
16FF	.	.	.
16C	.	16raa	.
16FF	.	16a-X 16cc 16aa-X	.
16F	8rc	[8a- [8cc [8aa-	.
16FFJJ	.	.	.
16CLL	4rc	8a-L] 8cc] 8aa-]	.
16F	.	.	.
16C	.	8f 8a- 8ff	.
16F	.	.	.
16c	8rc	8fJ 8a- 8cc	.
16FJJ	.	.	.
8f	4.c	8a-L	.
8r	.	8g	.
8r	.	8a-J	.
=164	=164	=164	=164
16FFFLL 16FF	8rc	8raa	.
16FF	.	.	.
16C	16rc	16raa	.
16FF	16An	16an	.
16F	[8A	[8a	.
16CJJ	.	.	.
8c	4.A]	8aL]	.
8r	.	8f	.
8r	.	8cJ	.
4r	4rc	8A	.
.	.	8raa	.
8r	8rc	8raa	.
=165	=165	=165	=165
16FFFLL 16FF	8rb	8rb	.
16FF	.	.	.
16C	16rc	16raa	.
16FF	16A-X	16a-X	.
16F	[8A-	[8a-	.
16CJJ	.	.	.
8c	4.A-]	8a-L]	.
8r	.	8f	.
8r	.	8cJ	.
4r	4rc	4A-	.
.	.	.	.
8r	8rc	8raa	.
*	*v	*v	*
*	*clefF4	*
=166	=166	=166
16FFFLL 16FF	8r	.
16FF	.	.
16C	16r	.
16FFJJ	16An	.
8F	[8A	.
4r	8AL]	.
.	8F	.
8r	8CJ	.
4r	4r	.
8r	8r	.
=167	=167	=167
16FFFLL 16FF	8r	.
16FF	.	.
16C	16r	.
16FFJJ	16A-X	.
8F	[8A-	.
4r	8A-L]	.
.	8F	.
8r	8CJ	.
4r	4r	.
8r	8r	.
=168	=168	=168
8r	2.C 2.F 2.An	.
16r	.	.
16FFF 16FF	.	.
[8FFF [8FF	.	.
8FFFL] 8FF]	.	.
8CCCJ 8CC	.	.
8r	.	.
4r	8r	.
.	8.FL	.
8r	.	.
.	16GJk	.
=169	=169	=169
*	*^	*
8r	[2.C [2.F	4G	.
16r	.	.	.
16FFF 16FF	.	.	.
[8FFF [8FF	.	[8A-X	.
8FFFL] 8FF]	.	4.A-_	.
8CCCJ 8CC	.	.	.
8r	.	.	.
4r	4.C] 4.F]	4.A-]	.
8r	.	.	.
*	*v	*v	*
=170	=170	=170
[2.FFF [2.FF	[2.C [2.F [2.An	.
4.FFF] 4.FF]	4.C] 4.F] 4.A]	.
==	==	==
*-	*-	*-
!!!system-decoration: {(*)}
!!!ENC: Bryan Jacob Bell
!!!END: November 2021 to April 2022
!!!PED: Günter Philipp
!!!PTL: Ausgewählte Klavierwerke (Edition Peters)
